;FLAVOR:Marlin
;TIME:1198
;Filament used: 0.297428m
;Layer height: 0.1
;MINX:67.175
;MINY:117.175
;MINZ:0.3
;MAXX:92.825
;MAXY:142.825
;MAXZ:10
;Generated with Cura_SteamEngine 4.6.1
M104 S200
M105
M109 S200
M82 ;absolute extrusion mode
G21 ;metric values
G90 ;absolute positioning
M82 ;set extruder to absolute mode
G28 X0.0 Y0.0 Z0.0 ;Home
;G1 Z15.0 F9000 ;move the platform down 15mm
G92 X0 Y0 Z0 E0 ;zero the extruded length
G1 F200 E6 ;extrude 6 mm of feed stock
G92 E0 ;zero the extruded length again
G1 F9000
;Put printing message on LCD screen
;M117 Printing...
G1 F200 E3
G92 E0
G92 E0
G92 E0
G1 F1500 E-6.5
;LAYER_COUNT:98
;LAYER:0
M107
G0 F3600 X70.845 Y118.358 Z0.3
;TYPE:SKIRT
G1 F1500 E0
G1 F600 X71.536 Y117.974 E0.03944
G1 X72.261 Y117.662 E0.07882
G1 X73.014 Y117.425 E0.1182
G1 X73.788 Y117.266 E0.15762
G1 X74.573 Y117.185 E0.19699
G1 X85.025 Y117.175 E0.71845
G1 X85.814 Y117.215 E0.75786
G1 X86.594 Y117.334 E0.79723
G1 X87.359 Y117.532 E0.83665
G1 X88.099 Y117.806 E0.87602
G1 X88.808 Y118.154 E0.91542
G1 X89.479 Y118.572 E0.95486
G1 X90.103 Y119.055 E0.99423
G1 X90.676 Y119.598 E1.03361
G1 X91.191 Y120.197 E1.07302
G1 X91.642 Y120.845 E1.11241
G1 X92.026 Y121.536 E1.15185
G1 X92.338 Y122.261 E1.19123
G1 X92.575 Y123.014 E1.23061
G1 X92.734 Y123.788 E1.27004
G1 X92.815 Y124.573 E1.30941
G1 X92.825 Y135.025 E1.83086
G1 X92.785 Y135.814 E1.87027
G1 X92.666 Y136.594 E1.90964
G1 X92.468 Y137.359 E1.94906
G1 X92.194 Y138.099 E1.98843
G1 X91.846 Y138.808 E2.02783
G1 X91.428 Y139.479 E2.06727
G1 X90.945 Y140.103 E2.10664
G1 X90.402 Y140.676 E2.14603
G1 X89.803 Y141.191 E2.18544
G1 X89.155 Y141.642 E2.22483
G1 X88.464 Y142.026 E2.26426
G1 X87.739 Y142.338 E2.30364
G1 X86.986 Y142.575 E2.34303
G1 X86.212 Y142.734 E2.38245
G1 X85.427 Y142.815 E2.42182
G1 X74.975 Y142.825 E2.94327
G1 X74.186 Y142.785 E2.98269
G1 X73.406 Y142.666 E3.02205
G1 X72.641 Y142.468 E3.06147
G1 X71.901 Y142.194 E3.10084
G1 X71.192 Y141.846 E3.14025
G1 X70.521 Y141.428 E3.17969
G1 X69.897 Y140.945 E3.21905
G1 X69.324 Y140.402 E3.25844
G1 X68.809 Y139.803 E3.29785
G1 X68.358 Y139.155 E3.33724
G1 X67.974 Y138.464 E3.37668
G1 X67.662 Y137.739 E3.41605
G1 X67.425 Y136.986 E3.45544
G1 X67.266 Y136.212 E3.49486
G1 X67.185 Y135.427 E3.53423
G1 X67.175 Y124.975 E4.05568
G1 X67.215 Y124.186 E4.0951
G1 X67.334 Y123.406 E4.13446
G1 X67.532 Y122.641 E4.17389
G1 X67.806 Y121.901 E4.21326
G1 X68.154 Y121.192 E4.25266
G1 X68.572 Y120.521 E4.2921
G1 X69.055 Y119.897 E4.33147
G1 X69.598 Y119.324 E4.37085
G1 X70.197 Y118.809 E4.41026
G1 X70.845 Y118.358 E4.44965
G0 F3600 X71.228 Y118.594
G1 F600 X71.911 Y118.239 E4.48805
G1 X72.626 Y117.958 E4.52638
G1 X73.368 Y117.752 E4.5648
G1 X74.126 Y117.624 E4.60315
G1 X74.975 Y117.575 E4.64558
G1 X85.025 Y117.575 E5.14698
G1 X85.793 Y117.615 E5.18534
G1 X86.553 Y117.734 E5.22372
G1 X87.296 Y117.932 E5.26208
G1 X88.015 Y118.206 E5.30047
G1 X88.701 Y118.553 E5.33883
G1 X89.348 Y118.969 E5.3772
G1 X89.948 Y119.45 E5.41557
G1 X90.495 Y119.991 E5.45395
G1 X90.983 Y120.586 E5.49234
G1 X91.406 Y121.228 E5.5307
G1 X91.761 Y121.911 E5.5691
G1 X92.042 Y122.626 E5.60743
G1 X92.248 Y123.368 E5.64585
G1 X92.376 Y124.126 E5.6842
G1 X92.425 Y124.975 E5.72663
G1 X92.425 Y135.025 E6.22802
G1 X92.385 Y135.793 E6.26639
G1 X92.266 Y136.553 E6.30477
G1 X92.068 Y137.296 E6.34313
G1 X91.794 Y138.015 E6.38152
G1 X91.447 Y138.701 E6.41987
G1 X91.031 Y139.348 E6.45825
G1 X90.55 Y139.948 E6.49661
G1 X90.009 Y140.495 E6.535
G1 X89.414 Y140.983 E6.57339
G1 X88.772 Y141.406 E6.61174
G1 X88.089 Y141.761 E6.65015
G1 X87.374 Y142.042 E6.68847
G1 X86.632 Y142.248 E6.72689
G1 X85.874 Y142.376 E6.76525
G1 X85.025 Y142.425 E6.80767
G1 X74.975 Y142.425 E7.30907
G1 X74.207 Y142.385 E7.34744
G1 X73.447 Y142.266 E7.38582
G1 X72.704 Y142.068 E7.42418
G1 X71.985 Y141.794 E7.46257
G1 X71.299 Y141.447 E7.50092
G1 X70.652 Y141.031 E7.53929
G1 X70.052 Y140.55 E7.57766
G1 X69.505 Y140.009 E7.61604
G1 X69.017 Y139.414 E7.65443
G1 X68.594 Y138.772 E7.69279
G1 X68.239 Y138.089 E7.73119
G1 X67.958 Y137.374 E7.76952
G1 X67.752 Y136.632 E7.80794
G1 X67.624 Y135.874 E7.84629
G1 X67.575 Y135.025 E7.88872
G1 X67.575 Y124.975 E8.39012
G1 X67.615 Y124.207 E8.42848
G1 X67.734 Y123.447 E8.46686
G1 X67.932 Y122.704 E8.50522
G1 X68.206 Y121.985 E8.54361
G1 X68.553 Y121.299 E8.58197
G1 X68.969 Y120.652 E8.62034
G1 X69.45 Y120.052 E8.65871
G1 X69.991 Y119.505 E8.69709
G1 X70.586 Y119.017 E8.73548
G1 X71.228 Y118.594 E8.77384
G0 F3600 X70.973 Y119.232
G1 F600 X71.609 Y118.837 E8.81119
G1 X72.283 Y118.513 E8.8485
G1 X72.988 Y118.263 E8.88582
G1 X73.716 Y118.089 E8.92316
G1 X74.458 Y117.994 E8.96048
G1 X74.975 Y117.975 E8.98629
G1 X85.025 Y117.975 E9.48769
G1 X85.772 Y118.015 E9.52501
G1 X86.51 Y118.134 E9.56231
G1 X87.232 Y118.332 E9.59966
G1 X87.928 Y118.605 E9.63696
G1 X88.591 Y118.952 E9.67429
G1 X89.214 Y119.367 E9.71164
G1 X89.788 Y119.846 E9.74893
G1 X90.309 Y120.383 E9.78626
G1 X90.768 Y120.973 E9.82356
G1 X91.163 Y121.609 E9.86091
G1 X91.487 Y122.283 E9.89822
G1 X91.737 Y122.988 E9.93554
G1 X91.911 Y123.716 E9.97288
G1 X92.006 Y124.458 E10.0102
G1 X92.025 Y124.975 E10.03601
G1 X92.025 Y135.025 E10.53741
G1 X91.985 Y135.772 E10.57473
G1 X91.866 Y136.51 E10.61202
G1 X91.668 Y137.232 E10.64937
G1 X91.395 Y137.928 E10.68667
G1 X91.048 Y138.591 E10.72401
G1 X90.633 Y139.214 E10.76135
G1 X90.154 Y139.788 E10.79865
G1 X89.617 Y140.309 E10.83598
G1 X89.027 Y140.768 E10.87327
G1 X88.391 Y141.163 E10.91062
G1 X87.717 Y141.487 E10.94793
G1 X87.012 Y141.737 E10.98525
G1 X86.284 Y141.911 E11.02259
G1 X85.542 Y142.006 E11.05992
G1 X85.025 Y142.025 E11.08573
G1 X74.975 Y142.025 E11.58712
G1 X74.228 Y141.985 E11.62444
G1 X73.49 Y141.866 E11.66174
G1 X72.768 Y141.668 E11.69909
G1 X72.072 Y141.395 E11.73639
G1 X71.409 Y141.048 E11.77372
G1 X70.786 Y140.633 E11.81107
G1 X70.212 Y140.154 E11.84837
G1 X69.691 Y139.617 E11.88569
G1 X69.232 Y139.027 E11.92299
G1 X68.837 Y138.391 E11.96034
G1 X68.513 Y137.717 E11.99765
G1 X68.263 Y137.012 E12.03497
G1 X68.089 Y136.284 E12.07231
G1 X67.994 Y135.542 E12.10963
G1 X67.975 Y135.025 E12.13544
G1 X67.975 Y124.975 E12.63684
G1 X68.015 Y124.228 E12.67416
G1 X68.134 Y123.49 E12.71146
G1 X68.332 Y122.768 E12.74881
G1 X68.605 Y122.072 E12.78611
G1 X68.952 Y121.409 E12.82344
G1 X69.367 Y120.786 E12.86079
G1 X69.846 Y120.212 E12.89808
G1 X70.383 Y119.691 E12.93541
G1 X70.973 Y119.232 E12.97271
G0 F3600 X71.359 Y119.454
G1 F600 X71.988 Y119.09 E13.00896
G1 X72.653 Y118.797 E13.04522
G1 X73.346 Y118.579 E13.08146
G1 X74.058 Y118.439 E13.11766
G1 X74.975 Y118.375 E13.16352
G1 X85.025 Y118.375 E13.66492
G1 X85.75 Y118.415 E13.70115
G1 X86.467 Y118.534 E13.73741
G1 X87.166 Y118.732 E13.77365
G1 X87.839 Y119.005 E13.80988
G1 X88.478 Y119.35 E13.84611
G1 X89.075 Y119.764 E13.88236
G1 X89.623 Y120.24 E13.91857
G1 X90.116 Y120.774 E13.95483
G1 X90.546 Y121.359 E13.99105
G1 X90.91 Y121.988 E14.02731
G1 X91.203 Y122.653 E14.06357
G1 X91.421 Y123.346 E14.09981
G1 X91.561 Y124.058 E14.13601
G1 X91.625 Y124.975 E14.18187
G1 X91.625 Y135.025 E14.68327
G1 X91.585 Y135.75 E14.71949
G1 X91.466 Y136.467 E14.75575
G1 X91.268 Y137.166 E14.792
G1 X90.995 Y137.839 E14.82823
G1 X90.65 Y138.478 E14.86446
G1 X90.236 Y139.075 E14.90071
G1 X89.76 Y139.623 E14.93692
G1 X89.226 Y140.116 E14.97318
G1 X88.641 Y140.546 E15.0094
G1 X88.012 Y140.91 E15.04566
G1 X87.347 Y141.203 E15.08191
G1 X86.654 Y141.421 E15.11816
G1 X85.942 Y141.561 E15.15436
G1 X85.025 Y141.625 E15.20022
G1 X74.975 Y141.625 E15.70162
G1 X74.25 Y141.585 E15.73784
G1 X73.533 Y141.466 E15.7741
G1 X72.834 Y141.268 E15.81035
G1 X72.161 Y140.995 E15.84658
G1 X71.522 Y140.65 E15.88281
G1 X70.925 Y140.236 E15.91906
G1 X70.377 Y139.76 E15.95527
G1 X69.884 Y139.226 E15.99153
G1 X69.454 Y138.641 E16.02775
G1 X69.09 Y138.012 E16.06401
G1 X68.797 Y137.347 E16.10026
G1 X68.579 Y136.654 E16.13651
G1 X68.439 Y135.942 E16.17271
G1 X68.375 Y135.025 E16.21857
G1 X68.375 Y124.975 E16.71997
G1 X68.415 Y124.25 E16.75619
G1 X68.534 Y123.533 E16.79245
G1 X68.732 Y122.834 E16.8287
G1 X69.005 Y122.161 E16.86493
G1 X69.35 Y121.522 E16.90116
G1 X69.764 Y120.925 E16.93741
G1 X70.24 Y120.377 E16.97362
G1 X70.774 Y119.884 E17.00988
G1 X71.359 Y119.454 E17.0461
G0 F3600 X71.743 Y119.684
G1 F600 X72.364 Y119.352 E17.08123
G1 X73.018 Y119.092 E17.11634
G1 X73.698 Y118.908 E17.15149
G1 X74.394 Y118.802 E17.18661
G1 X74.975 Y118.775 E17.21563
G1 X85.025 Y118.775 E17.71703
G1 X85.728 Y118.815 E17.75216
G1 X86.422 Y118.934 E17.78729
G1 X87.097 Y119.132 E17.82238
G1 X87.746 Y119.404 E17.85749
G1 X88.36 Y119.749 E17.89263
G1 X88.931 Y120.16 E17.92773
G1 X89.452 Y120.634 E17.96287
G1 X89.916 Y121.164 E17.99801
G1 X90.316 Y121.743 E18.03312
G1 X90.648 Y122.364 E18.06825
G1 X90.908 Y123.018 E18.10336
G1 X91.092 Y123.698 E18.13851
G1 X91.198 Y124.394 E18.17363
G1 X91.225 Y124.975 E18.20265
G1 X91.225 Y135.025 E18.70405
G1 X91.185 Y135.728 E18.73917
G1 X91.066 Y136.422 E18.7743
G1 X90.868 Y137.097 E18.8094
G1 X90.596 Y137.746 E18.84451
G1 X90.251 Y138.36 E18.87964
G1 X89.84 Y138.931 E18.91474
G1 X89.366 Y139.452 E18.94988
G1 X88.836 Y139.916 E18.98503
G1 X88.257 Y140.316 E19.02014
G1 X87.636 Y140.648 E19.05527
G1 X86.982 Y140.908 E19.09038
G1 X86.302 Y141.092 E19.12552
G1 X85.606 Y141.198 E19.16065
G1 X85.025 Y141.225 E19.18967
G1 X74.975 Y141.225 E19.69106
G1 X74.272 Y141.185 E19.72619
G1 X73.578 Y141.066 E19.76132
G1 X72.903 Y140.868 E19.79642
G1 X72.254 Y140.596 E19.83152
G1 X71.64 Y140.251 E19.86666
G1 X71.069 Y139.84 E19.90176
G1 X70.548 Y139.366 E19.9369
G1 X70.084 Y138.836 E19.97204
G1 X69.684 Y138.257 E20.00715
G1 X69.352 Y137.636 E20.04228
G1 X69.092 Y136.982 E20.0774
G1 X68.908 Y136.302 E20.11254
G1 X68.802 Y135.606 E20.14767
G1 X68.775 Y135.025 E20.17668
G1 X68.775 Y124.975 E20.67808
G1 X68.815 Y124.272 E20.71321
G1 X68.934 Y123.578 E20.74834
G1 X69.132 Y122.903 E20.78343
G1 X69.404 Y122.254 E20.81854
G1 X69.749 Y121.64 E20.85368
G1 X70.16 Y121.069 E20.88878
G1 X70.634 Y120.548 E20.92392
G1 X71.164 Y120.084 E20.95906
G1 X71.743 Y119.684 E20.99417
G0 F3600 X72.125 Y119.923
G1 F600 X72.737 Y119.624 E21.02815
G1 X73.379 Y119.399 E21.06209
G1 X74.044 Y119.25 E21.09609
G1 X74.975 Y119.175 E21.14269
G1 X85.025 Y119.175 E21.64409
G1 X85.705 Y119.215 E21.67807
G1 X86.375 Y119.334 E21.71202
G1 X87.027 Y119.531 E21.746
G1 X87.651 Y119.803 E21.77996
G1 X88.239 Y120.147 E21.81395
G1 X88.783 Y120.557 E21.84793
G1 X89.274 Y121.028 E21.88188
G1 X89.708 Y121.553 E21.91586
G1 X90.077 Y122.125 E21.94982
G1 X90.376 Y122.737 E21.9838
G1 X90.601 Y123.379 E22.01774
G1 X90.75 Y124.044 E22.05174
G1 X90.825 Y124.975 E22.09834
G1 X90.825 Y135.025 E22.59974
G1 X90.785 Y135.705 E22.63372
G1 X90.666 Y136.375 E22.66767
G1 X90.469 Y137.027 E22.70165
G1 X90.197 Y137.651 E22.73561
G1 X89.853 Y138.239 E22.7696
G1 X89.443 Y138.783 E22.80358
G1 X88.972 Y139.274 E22.83753
G1 X88.447 Y139.708 E22.87151
G1 X87.875 Y140.077 E22.90547
G1 X87.263 Y140.376 E22.93945
G1 X86.621 Y140.601 E22.97339
G1 X85.956 Y140.75 E23.00739
G1 X85.025 Y140.825 E23.05399
G1 X74.975 Y140.825 E23.55539
G1 X74.295 Y140.785 E23.58937
G1 X73.625 Y140.666 E23.62332
G1 X72.973 Y140.469 E23.6573
G1 X72.349 Y140.197 E23.69126
G1 X71.761 Y139.853 E23.72525
G1 X71.217 Y139.443 E23.75924
G1 X70.726 Y138.972 E23.79318
G1 X70.292 Y138.447 E23.82716
G1 X69.923 Y137.875 E23.86112
G1 X69.624 Y137.263 E23.89511
G1 X69.399 Y136.621 E23.92904
G1 X69.25 Y135.956 E23.96304
G1 X69.175 Y135.025 E24.00964
G1 X69.175 Y124.975 E24.51104
G1 X69.215 Y124.295 E24.54502
G1 X69.334 Y123.625 E24.57897
G1 X69.531 Y122.973 E24.61295
G1 X69.803 Y122.349 E24.64691
G1 X70.147 Y121.761 E24.6809
G1 X70.557 Y121.217 E24.71489
G1 X71.028 Y120.726 E24.74883
G1 X71.553 Y120.292 E24.78281
G1 X72.125 Y119.923 E24.81677
G0 F3600 X71.94 Y120.509
G1 F600 X72.504 Y120.173 E24.84953
G1 X73.106 Y119.909 E24.88232
G1 X73.735 Y119.719 E24.9151
G1 X74.382 Y119.608 E24.94785
G1 X74.975 Y119.575 E24.97748
G1 X85.025 Y119.575 E25.47888
G1 X85.681 Y119.615 E25.51167
G1 X86.327 Y119.734 E25.54444
G1 X86.954 Y119.931 E25.57723
G1 X87.552 Y120.203 E25.61001
G1 X88.113 Y120.545 E25.64278
G1 X88.628 Y120.953 E25.67556
G1 X89.09 Y121.42 E25.70834
G1 X89.491 Y121.94 E25.7411
G1 X89.827 Y122.504 E25.77385
G1 X90.091 Y123.106 E25.80665
G1 X90.281 Y123.735 E25.83943
G1 X90.392 Y124.382 E25.87218
G1 X90.425 Y124.975 E25.90181
G1 X90.425 Y135.025 E26.40321
G1 X90.385 Y135.681 E26.43599
G1 X90.266 Y136.327 E26.46877
G1 X90.069 Y136.954 E26.50155
G1 X89.797 Y137.552 E26.53433
G1 X89.455 Y138.113 E26.56711
G1 X89.047 Y138.628 E26.59989
G1 X88.58 Y139.09 E26.63266
G1 X88.06 Y139.491 E26.66542
G1 X87.496 Y139.827 E26.69818
G1 X86.894 Y140.091 E26.73097
G1 X86.265 Y140.281 E26.76375
G1 X85.618 Y140.392 E26.7965
G1 X85.025 Y140.425 E26.82613
G1 X74.975 Y140.425 E27.32753
G1 X74.319 Y140.385 E27.36032
G1 X73.673 Y140.266 E27.39309
G1 X73.046 Y140.069 E27.42588
G1 X72.448 Y139.797 E27.45865
G1 X71.887 Y139.455 E27.49143
G1 X71.372 Y139.047 E27.52421
G1 X70.91 Y138.58 E27.55699
G1 X70.509 Y138.06 E27.58975
G1 X70.173 Y137.496 E27.6225
G1 X69.909 Y136.894 E27.6553
G1 X69.719 Y136.265 E27.68808
G1 X69.608 Y135.618 E27.72083
G1 X69.575 Y135.025 E27.75046
G1 X69.575 Y124.975 E28.25185
G1 X69.615 Y124.319 E28.28464
G1 X69.734 Y123.673 E28.31741
G1 X69.931 Y123.046 E28.3502
G1 X70.203 Y122.448 E28.38298
G1 X70.545 Y121.887 E28.41576
G1 X70.953 Y121.372 E28.44854
G1 X71.42 Y120.91 E28.48131
G1 X71.94 Y120.509 E28.51407
G0 F3600 X72.325 Y120.735
G1 F600 X72.881 Y120.435 E28.54559
G1 X73.47 Y120.207 E28.5771
G1 X74.084 Y120.055 E28.60866
G1 X74.975 Y119.975 E28.65329
G1 X85.025 Y119.975 E29.15469
G1 X85.656 Y120.015 E29.18623
G1 X86.277 Y120.134 E29.21778
G1 X86.877 Y120.331 E29.24928
G1 X87.449 Y120.602 E29.28086
G1 X87.981 Y120.942 E29.31236
G1 X88.466 Y121.348 E29.34391
G1 X88.896 Y121.811 E29.37544
G1 X89.265 Y122.325 E29.40701
G1 X89.565 Y122.881 E29.43853
G1 X89.793 Y123.47 E29.47004
G1 X89.945 Y124.084 E29.50159
G1 X90.025 Y124.975 E29.54622
G1 X90.025 Y135.025 E30.04762
G1 X89.985 Y135.656 E30.07916
G1 X89.866 Y136.277 E30.11071
G1 X89.669 Y136.877 E30.14222
G1 X89.398 Y137.449 E30.17379
G1 X89.058 Y137.981 E30.20529
G1 X88.652 Y138.466 E30.23685
G1 X88.189 Y138.896 E30.26837
G1 X87.675 Y139.265 E30.29994
G1 X87.119 Y139.565 E30.33146
G1 X86.53 Y139.793 E30.36297
G1 X85.916 Y139.945 E30.39453
G1 X85.025 Y140.025 E30.43916
G1 X74.975 Y140.025 E30.94055
G1 X74.344 Y139.985 E30.9721
G1 X73.723 Y139.866 E31.00364
G1 X73.123 Y139.669 E31.03515
G1 X72.551 Y139.398 E31.06673
G1 X72.019 Y139.058 E31.09823
G1 X71.534 Y138.652 E31.12978
G1 X71.104 Y138.189 E31.16131
G1 X70.735 Y137.675 E31.19288
G1 X70.435 Y137.119 E31.22439
G1 X70.207 Y136.53 E31.2559
G1 X70.055 Y135.916 E31.28746
G1 X69.975 Y135.025 E31.33209
G1 X69.975 Y124.975 E31.83349
G1 X70.015 Y124.344 E31.86503
G1 X70.134 Y123.723 E31.89658
G1 X70.331 Y123.123 E31.92809
G1 X70.602 Y122.551 E31.95966
G1 X70.942 Y122.019 E31.99116
G1 X71.348 Y121.534 E32.02272
G1 X71.811 Y121.104 E32.05424
G1 X72.325 Y120.735 E32.08581
G0 F3600 X72.707 Y120.973
G1 F600 X73.253 Y120.709 E32.11607
G1 X73.829 Y120.52 E32.14631
G1 X74.425 Y120.408 E32.17657
G1 X74.975 Y120.375 E32.20406
G1 X85.025 Y120.375 E32.70545
G1 X85.63 Y120.415 E32.7357
G1 X86.224 Y120.534 E32.76592
G1 X86.798 Y120.73 E32.79619
G1 X87.341 Y121.001 E32.82646
G1 X87.844 Y121.34 E32.85672
G1 X88.297 Y121.742 E32.88694
G1 X88.694 Y122.2 E32.91718
G1 X89.027 Y122.707 E32.94744
G1 X89.291 Y123.253 E32.9777
G1 X89.48 Y123.829 E33.00794
