;FLAVOR:Marlin
;TIME:2113
;Filament used: 1.41428m
;Layer height: 0.1
;MINX:42.449
;MINY:58.608
;MINZ:0.3
;MAXX:78.149
;MAXY:94.308
;MAXZ:20.1
;Generated with Cura_SteamEngine 4.6.1
M104 S200
M105
M109 S200
M82 ;absolute extrusion mode
G21 ;metric values
G90 ;absolute positioning
M82 ;set extruder to absolute mode
G28 X0.0 Y0.0 Z0.0 ;Home
;G1 Z15.0 F9000 ;move the platform down 15mm
G92 X0 Y0 Z0 E0 ;zero the extruded length
G1 F200 E6 ;extrude 6 mm of feed stock
G92 E0 ;zero the extruded length again
G1 F9000
;Put printing message on LCD screen
;M117 Printing...
G1 F200 E3
G92 E0
G92 E0
G92 E0
G1 F1500 E-6.5
;LAYER_COUNT:199
;LAYER:0
M107
G0 F3600 X45.471 Y60.242 Z0.3
;TYPE:SKIRT
G1 F1500 E0
G1 F1800 X46.119 Y59.791 E0.03939
G1 X46.81 Y59.407 E0.07883
G1 X47.535 Y59.095 E0.11821
G1 X48.288 Y58.858 E0.15759
G1 X49.062 Y58.699 E0.19701
G1 X49.847 Y58.618 E0.23638
G1 X70.349 Y58.608 E1.25923
G1 X71.138 Y58.648 E1.29865
G1 X71.918 Y58.767 E1.33801
G1 X72.683 Y58.965 E1.37743
G1 X73.423 Y59.239 E1.4168
G1 X74.132 Y59.587 E1.45621
G1 X74.803 Y60.005 E1.49565
G1 X75.427 Y60.488 E1.53501
G1 X76 Y61.031 E1.5744
G1 X76.515 Y61.63 E1.61381
G1 X76.966 Y62.278 E1.6532
G1 X77.35 Y62.969 E1.69264
G1 X77.662 Y63.694 E1.73201
G1 X77.899 Y64.447 E1.7714
G1 X78.058 Y65.221 E1.81082
G1 X78.139 Y66.006 E1.85019
G1 X78.149 Y86.508 E2.87304
G1 X78.109 Y87.297 E2.91245
G1 X77.99 Y88.077 E2.95182
G1 X77.792 Y88.842 E2.99124
G1 X77.518 Y89.582 E3.03061
G1 X77.17 Y90.291 E3.07001
G1 X76.752 Y90.962 E3.10946
G1 X76.269 Y91.586 E3.14882
G1 X75.726 Y92.159 E3.18821
G1 X75.127 Y92.674 E3.22762
G1 X74.479 Y93.125 E3.26701
G1 X73.788 Y93.509 E3.30645
G1 X73.063 Y93.821 E3.34582
G1 X72.31 Y94.058 E3.38521
G1 X71.536 Y94.217 E3.42463
G1 X70.751 Y94.298 E3.464
G1 X50.249 Y94.308 E4.48685
G1 X49.46 Y94.268 E4.52626
G1 X48.68 Y94.149 E4.56563
G1 X47.915 Y93.951 E4.60505
G1 X47.175 Y93.677 E4.64442
G1 X46.466 Y93.329 E4.68382
G1 X45.795 Y92.911 E4.72326
G1 X45.171 Y92.428 E4.76263
G1 X44.598 Y91.885 E4.80202
G1 X44.083 Y91.286 E4.84143
G1 X43.632 Y90.638 E4.88082
G1 X43.248 Y89.947 E4.92025
G1 X42.936 Y89.222 E4.95963
G1 X42.699 Y88.469 E4.99902
G1 X42.54 Y87.695 E5.03844
G1 X42.459 Y86.91 E5.07781
G1 X42.449 Y66.408 E6.10066
G1 X42.489 Y65.619 E6.14007
G1 X42.608 Y64.839 E6.17944
G1 X42.806 Y64.074 E6.21886
G1 X43.08 Y63.334 E6.25823
G1 X43.428 Y62.625 E6.29763
G1 X43.846 Y61.954 E6.33707
G1 X44.329 Y61.33 E6.37644
G1 X44.872 Y60.757 E6.41583
G1 X45.471 Y60.242 E6.45524
G0 F3600 X45.86 Y60.45
G1 F1800 X46.502 Y60.027 E6.49359
G1 X47.185 Y59.672 E6.532
G1 X47.9 Y59.391 E6.57032
G1 X48.642 Y59.185 E6.60874
G1 X49.4 Y59.057 E6.64709
G1 X50.249 Y59.008 E6.68952
G1 X70.349 Y59.008 E7.69231
G1 X71.117 Y59.048 E7.73068
G1 X71.877 Y59.167 E7.76906
G1 X72.62 Y59.365 E7.80742
G1 X73.339 Y59.639 E7.84581
G1 X74.025 Y59.986 E7.88416
G1 X74.672 Y60.402 E7.92254
G1 X75.272 Y60.883 E7.96091
G1 X75.819 Y61.424 E7.99929
G1 X76.307 Y62.019 E8.03768
G1 X76.73 Y62.661 E8.07604
G1 X77.085 Y63.344 E8.11444
G1 X77.366 Y64.059 E8.15277
G1 X77.572 Y64.801 E8.19119
G1 X77.7 Y65.559 E8.22954
G1 X77.749 Y66.408 E8.27197
G1 X77.749 Y86.508 E9.27476
G1 X77.709 Y87.276 E9.31313
G1 X77.59 Y88.036 E9.3515
G1 X77.392 Y88.779 E9.38987
G1 X77.118 Y89.498 E9.42825
G1 X76.771 Y90.184 E9.46661
G1 X76.355 Y90.831 E9.50498
G1 X75.874 Y91.431 E9.54335
G1 X75.333 Y91.978 E9.58173
G1 X74.738 Y92.466 E9.62012
G1 X74.096 Y92.889 E9.65848
G1 X73.413 Y93.244 E9.69688
G1 X72.698 Y93.525 E9.73521
G1 X71.956 Y93.731 E9.77363
G1 X71.198 Y93.859 E9.81198
G1 X70.349 Y93.908 E9.85441
G1 X50.249 Y93.908 E10.8572
G1 X49.481 Y93.868 E10.89557
G1 X48.721 Y93.749 E10.93395
G1 X47.978 Y93.551 E10.97231
G1 X47.259 Y93.277 E11.0107
G1 X46.573 Y92.93 E11.04905
G1 X45.926 Y92.514 E11.08743
G1 X45.326 Y92.033 E11.12579
G1 X44.779 Y91.492 E11.16418
G1 X44.291 Y90.897 E11.20257
G1 X43.868 Y90.255 E11.24092
G1 X43.513 Y89.572 E11.27933
G1 X43.232 Y88.857 E11.31765
G1 X43.026 Y88.115 E11.35607
G1 X42.898 Y87.357 E11.39443
G1 X42.849 Y86.508 E11.43685
G1 X42.849 Y66.408 E12.43965
G1 X42.889 Y65.64 E12.47801
G1 X43.008 Y64.88 E12.51639
G1 X43.206 Y64.137 E12.55475
G1 X43.48 Y63.418 E12.59314
G1 X43.827 Y62.732 E12.6315
G1 X44.243 Y62.085 E12.66987
G1 X44.724 Y61.485 E12.70824
G1 X45.265 Y60.938 E12.74662
G1 X45.86 Y60.45 E12.78501
G0 F3600 X46.247 Y60.665
G1 F1800 X46.883 Y60.27 E12.82236
G1 X47.557 Y59.946 E12.85967
G1 X48.262 Y59.696 E12.89699
G1 X48.99 Y59.522 E12.93433
G1 X49.732 Y59.427 E12.97165
G1 X50.249 Y59.408 E12.99746
G1 X70.349 Y59.408 E14.00026
G1 X71.096 Y59.448 E14.03758
G1 X71.834 Y59.567 E14.07487
G1 X72.556 Y59.765 E14.11222
G1 X73.252 Y60.038 E14.14952
G1 X73.915 Y60.385 E14.18686
G1 X74.538 Y60.8 E14.2242
G1 X75.112 Y61.279 E14.2615
G1 X75.633 Y61.816 E14.29883
G1 X76.092 Y62.406 E14.33612
G1 X76.487 Y63.042 E14.37348
G1 X76.811 Y63.716 E14.41078
G1 X77.061 Y64.421 E14.4481
G1 X77.235 Y65.149 E14.48545
G1 X77.33 Y65.891 E14.52277
G1 X77.349 Y66.408 E14.54858
G1 X77.349 Y86.508 E15.55137
G1 X77.309 Y87.255 E15.58869
G1 X77.19 Y87.993 E15.62599
G1 X76.992 Y88.715 E15.66334
G1 X76.719 Y89.411 E15.70064
G1 X76.372 Y90.074 E15.73797
G1 X75.957 Y90.697 E15.77532
G1 X75.478 Y91.271 E15.81262
G1 X74.941 Y91.792 E15.84994
G1 X74.351 Y92.251 E15.88724
G1 X73.715 Y92.646 E15.92459
G1 X73.041 Y92.97 E15.9619
G1 X72.336 Y93.22 E15.99922
G1 X71.608 Y93.394 E16.03656
G1 X70.866 Y93.489 E16.07388
G1 X70.349 Y93.508 E16.09969
G1 X50.249 Y93.508 E17.10248
G1 X49.502 Y93.468 E17.13981
G1 X48.764 Y93.349 E17.1771
G1 X48.042 Y93.151 E17.21445
G1 X47.346 Y92.878 E17.25175
G1 X46.683 Y92.531 E17.28908
G1 X46.06 Y92.116 E17.32643
G1 X45.486 Y91.637 E17.36373
G1 X44.965 Y91.1 E17.40106
G1 X44.506 Y90.51 E17.43835
G1 X44.111 Y89.874 E17.4757
G1 X43.787 Y89.2 E17.51301
G1 X43.537 Y88.495 E17.55033
G1 X43.363 Y87.767 E17.58767
G1 X43.268 Y87.025 E17.62499
G1 X43.249 Y86.508 E17.6508
G1 X43.249 Y66.408 E18.6536
G1 X43.289 Y65.661 E18.69092
G1 X43.408 Y64.923 E18.72821
G1 X43.606 Y64.201 E18.76556
G1 X43.879 Y63.505 E18.80286
G1 X44.226 Y62.842 E18.8402
G1 X44.641 Y62.219 E18.87754
G1 X45.12 Y61.645 E18.91484
G1 X45.657 Y61.124 E18.95217
G1 X46.247 Y60.665 E18.98946
G0 F3600 X46.048 Y61.317
G1 F1800 X46.633 Y60.887 E19.02569
G1 X47.262 Y60.523 E19.06194
G1 X47.927 Y60.23 E19.0982
G1 X48.62 Y60.012 E19.13444
G1 X49.332 Y59.872 E19.17064
G1 X50.249 Y59.808 E19.2165
G1 X70.349 Y59.808 E20.2193
G1 X71.074 Y59.848 E20.25552
G1 X71.791 Y59.967 E20.29178
G1 X72.49 Y60.165 E20.32803
G1 X73.163 Y60.438 E20.36426
G1 X73.802 Y60.783 E20.40049
G1 X74.399 Y61.197 E20.43674
G1 X74.947 Y61.673 E20.47295
G1 X75.44 Y62.207 E20.50921
G1 X75.87 Y62.792 E20.54543
G1 X76.234 Y63.421 E20.58169
G1 X76.527 Y64.086 E20.61794
G1 X76.745 Y64.779 E20.65419
G1 X76.885 Y65.491 E20.69039
G1 X76.949 Y66.408 E20.73625
G1 X76.949 Y86.508 E21.73904
G1 X76.909 Y87.233 E21.77527
G1 X76.79 Y87.95 E21.81153
G1 X76.592 Y88.649 E21.84777
G1 X76.319 Y89.322 E21.88401
G1 X75.974 Y89.961 E21.92024
G1 X75.56 Y90.558 E21.95648
G1 X75.084 Y91.106 E21.99269
G1 X74.55 Y91.599 E22.02895
G1 X73.965 Y92.029 E22.06518
G1 X73.336 Y92.393 E22.10143
G1 X72.671 Y92.686 E22.13769
G1 X71.978 Y92.904 E22.17393
G1 X71.266 Y93.044 E22.21013
G1 X70.349 Y93.108 E22.25599
G1 X50.249 Y93.108 E23.25879
G1 X49.524 Y93.068 E23.29501
G1 X48.807 Y92.949 E23.33127
G1 X48.108 Y92.751 E23.36752
G1 X47.435 Y92.478 E23.40375
G1 X46.796 Y92.133 E23.43998
G1 X46.199 Y91.719 E23.47623
G1 X45.651 Y91.243 E23.51244
G1 X45.158 Y90.709 E23.5487
G1 X44.728 Y90.124 E23.58492
G1 X44.364 Y89.495 E23.62118
G1 X44.071 Y88.83 E23.65743
G1 X43.853 Y88.137 E23.69368
G1 X43.713 Y87.425 E23.72988
G1 X43.649 Y86.508 E23.77574
G1 X43.649 Y66.408 E24.77853
G1 X43.689 Y65.683 E24.81476
G1 X43.808 Y64.966 E24.85102
G1 X44.006 Y64.267 E24.88726
G1 X44.279 Y63.594 E24.9235
G1 X44.624 Y62.955 E24.95973
G1 X45.038 Y62.358 E24.99597
G1 X45.514 Y61.81 E25.03219
G1 X46.048 Y61.317 E25.06844
G0 F3600 X46.438 Y61.517
G1 F1800 X47.017 Y61.117 E25.10355
G1 X47.638 Y60.785 E25.13869
G1 X48.292 Y60.525 E25.1738
G1 X48.972 Y60.341 E25.20894
G1 X49.668 Y60.235 E25.24407
G1 X50.249 Y60.208 E25.27308
G1 X70.349 Y60.208 E26.27588
G1 X71.052 Y60.248 E26.31101
G1 X71.746 Y60.367 E26.34614
G1 X72.421 Y60.565 E26.38123
G1 X73.07 Y60.837 E26.41634
G1 X73.684 Y61.182 E26.45148
G1 X74.255 Y61.593 E26.48658
G1 X74.776 Y62.067 E26.52172
G1 X75.24 Y62.597 E26.55686
G1 X75.64 Y63.176 E26.59197
G1 X75.972 Y63.797 E26.6271
G1 X76.232 Y64.451 E26.66221
G1 X76.416 Y65.131 E26.69736
G1 X76.522 Y65.827 E26.73248
G1 X76.549 Y66.408 E26.7615
G1 X76.549 Y86.508 E27.76429
G1 X76.509 Y87.211 E27.79942
G1 X76.39 Y87.905 E27.83455
G1 X76.192 Y88.58 E27.86965
G1 X75.92 Y89.229 E27.90475
G1 X75.575 Y89.843 E27.93989
G1 X75.164 Y90.414 E27.97499
G1 X74.69 Y90.935 E28.01013
G1 X74.16 Y91.399 E28.04527
G1 X73.581 Y91.799 E28.08038
G1 X72.96 Y92.131 E28.11551
G1 X72.306 Y92.391 E28.15063
G1 X71.626 Y92.575 E28.18577
G1 X70.93 Y92.681 E28.2209
G1 X70.349 Y92.708 E28.24991
G1 X50.249 Y92.708 E29.25271
G1 X49.546 Y92.668 E29.28784
G1 X48.852 Y92.549 E29.32296
G1 X48.177 Y92.351 E29.35806
G1 X47.528 Y92.079 E29.39317
G1 X46.914 Y91.734 E29.4283
G1 X46.343 Y91.323 E29.4634
G1 X45.822 Y90.849 E29.49854
G1 X45.358 Y90.319 E29.53369
G1 X44.958 Y89.74 E29.5688
G1 X44.626 Y89.119 E29.60393
G1 X44.366 Y88.465 E29.63904
G1 X44.182 Y87.785 E29.67419
G1 X44.076 Y87.089 E29.70931
G1 X44.049 Y86.508 E29.73833
G1 X44.049 Y66.408 E30.74112
G1 X44.089 Y65.705 E30.77625
G1 X44.208 Y65.011 E30.81138
G1 X44.406 Y64.336 E30.84647
G1 X44.678 Y63.687 E30.88158
G1 X45.023 Y63.073 E30.91672
G1 X45.434 Y62.502 E30.95182
G1 X45.908 Y61.981 E30.98696
G1 X46.438 Y61.517 E31.0221
G0 F3600 X46.827 Y61.725
G1 F1800 X47.399 Y61.356 E31.05606
G1 X48.011 Y61.057 E31.09004
G1 X48.653 Y60.832 E31.12398
G1 X49.318 Y60.683 E31.15798
G1 X50.249 Y60.608 E31.20458
G1 X70.349 Y60.608 E32.20737
G1 X71.029 Y60.648 E32.24136
G1 X71.699 Y60.767 E32.27531
G1 X72.351 Y60.964 E32.30929
G1 X72.975 Y61.236 E32.34325
G1 X73.563 Y61.58 E32.37724
G1 X74.107 Y61.99 E32.41122
G1 X74.598 Y62.461 E32.44517
G1 X75.032 Y62.986 E32.47915
G1 X75.401 Y63.558 E32.51311
G1 X75.7 Y64.17 E32.54709
G1 X75.925 Y64.812 E32.58103
G1 X76.074 Y65.477 E32.61503
G1 X76.149 Y66.408 E32.66163
G1 X76.149 Y86.508 E33.66442
G1 X76.109 Y87.188 E33.6984
G1 X75.99 Y87.858 E33.73235
G1 X75.793 Y88.51 E33.76634
G1 X75.521 Y89.134 E33.8003
G1 X75.177 Y89.722 E33.83428
G1 X74.767 Y90.266 E33.86827
G1 X74.296 Y90.757 E33.90221
G1 X73.771 Y91.191 E33.9362
G1 X73.199 Y91.56 E33.97016
G1 X72.587 Y91.859 E34.00414
G1 X71.945 Y92.084 E34.03808
G1 X71.28 Y92.233 E34.07208
G1 X70.349 Y92.308 E34.11868
G1 X50.249 Y92.308 E35.12147
G1 X49.569 Y92.268 E35.15545
G1 X48.899 Y92.149 E35.1894
G1 X48.247 Y91.952 E35.22338
G1 X47.623 Y91.68 E35.25734
G1 X47.035 Y91.336 E35.29133
G1 X46.491 Y90.926 E35.32532
G1 X46 Y90.455 E35.35926
G1 X45.566 Y89.93 E35.39324
G1 X45.197 Y89.358 E35.4272
G1 X44.898 Y88.746 E35.46119
G1 X44.673 Y88.104 E35.49512
G1 X44.524 Y87.439 E35.52912
G1 X44.449 Y86.508 E35.57572
G1 X44.449 Y66.408 E36.57852
G1 X44.489 Y65.728 E36.6125
G1 X44.608 Y65.058 E36.64645
G1 X44.805 Y64.406 E36.68043
G1 X45.077 Y63.782 E36.71439
G1 X45.421 Y63.194 E36.74838
G1 X45.831 Y62.65 E36.78236
G1 X46.302 Y62.159 E36.81631
G1 X46.827 Y61.725 E36.85029
G0 F3600 X46.694 Y62.343
G1 F1800 X47.214 Y61.942 E36.88305
G1 X47.778 Y61.606 E36.9158
G1 X48.38 Y61.342 E36.9486
G1 X49.009 Y61.152 E36.98138
G1 X49.656 Y61.041 E37.01413
G1 X50.249 Y61.008 E37.04376
G1 X70.349 Y61.008 E38.04655
G1 X71.005 Y61.048 E38.07934
G1 X71.651 Y61.167 E38.11211
G1 X72.278 Y61.364 E38.1449
G1 X72.876 Y61.636 E38.17768
G1 X73.437 Y61.978 E38.21046
G1 X73.952 Y62.386 E38.24324
G1 X74.414 Y62.853 E38.27601
G1 X74.815 Y63.373 E38.30877
G1 X75.151 Y63.937 E38.34153
G1 X75.415 Y64.539 E38.37432
G1 X75.605 Y65.168 E38.4071
G1 X75.716 Y65.815 E38.43985
G1 X75.749 Y66.408 E38.46948
G1 X75.749 Y86.508 E39.47228
G1 X75.709 Y87.164 E39.50506
G1 X75.59 Y87.81 E39.53784
G1 X75.393 Y88.437 E39.57062
G1 X75.121 Y89.035 E39.6034
G1 X74.779 Y89.596 E39.63618
G1 X74.371 Y90.111 E39.66896
G1 X73.904 Y90.573 E39.70173
G1 X73.384 Y90.974 E39.73449
G1 X72.82 Y91.31 E39.76725
G1 X72.218 Y91.574 E39.80004
G1 X71.589 Y91.764 E39.83282
G1 X70.942 Y91.875 E39.86557
G1 X70.349 Y91.908 E39.8952
G1 X50.249 Y91.908 E40.898
G1 X49.593 Y91.868 E40.93079
G1 X48.947 Y91.749 E40.96356
G1 X48.32 Y91.552 E40.99635
G1 X47.722 Y91.28 E41.02912
G1 X47.161 Y90.938 E41.0619
G1 X46.646 Y90.53 E41.09468
G1 X46.184 Y90.063 E41.12745
G1 X45.783 Y89.543 E41.16021
G1 X45.447 Y88.979 E41.19297
G1 X45.183 Y88.377 E41.22576
G1 X44.993 Y87.748 E41.25854
G1 X44.882 Y87.101 E41.29129
G1 X44.849 Y86.508 E41.32092
G1 X44.849 Y66.408 E42.32372
G1 X44.889 Y65.752 E42.35651
G1 X45.008 Y65.106 E42.38928
G1 X45.205 Y64.479 E42.42207
G1 X45.477 Y63.881 E42.45484
G1 X45.819 Y63.32 E42.48762
G1 X46.227 Y62.805 E42.5204
G1 X46.694 Y62.343 E42.55317
G0 F3600 X47.085 Y62.537
G1 F1800 X47.599 Y62.168 E42.58474
G1 X48.155 Y61.868 E42.61626
G1 X48.744 Y61.64 E42.64777
G1 X49.358 Y61.488 E42.67933
G1 X50.249 Y61.408 E42.72396
G1 X70.349 Y61.408 E43.72675
G1 X70.98 Y61.448 E43.7583
G1 X71.601 Y61.567 E43.78984
G1 X72.201 Y61.764 E43.82135
G1 X72.773 Y62.035 E43.85293
G1 X73.305 Y62.375 E43.88442
G1 X73.79 Y62.781 E43.91598
G1 X74.22 Y63.244 E43.94751
G1 X74.589 Y63.758 E43.97907
G1 X74.889 Y64.314 E44.01059
G1 X75.117 Y64.903 E44.0421
G1 X75.269 Y65.517 E44.07366
G1 X75.349 Y66.408 E44.11829
G1 X75.349 Y86.508 E45.12108
G1 X75.309 Y87.139 E45.15263
G1 X75.19 Y87.76 E45.18417
G1 X74.993 Y88.36 E45.21568
G1 X74.722 Y88.932 E45.24726
G1 X74.382 Y89.464 E45.27876
G1 X73.976 Y89.949 E45.31031
G1 X73.513 Y90.379 E45.34184
G1 X72.999 Y90.748 E45.3734
G1 X72.443 Y91.048 E45.40492
G1 X71.854 Y91.276 E45.43643
G1 X71.24 Y91.428 E45.46799
G1 X70.349 Y91.508 E45.51262
G1 X50.249 Y91.508 E46.51541
G1 X49.618 Y91.468 E46.54696
G1 X48.997 Y91.349 E46.5785
G1 X48.397 Y91.152 E46.61001
G1 X47.825 Y90.881 E46.64159
G1 X47.293 Y90.541 E46.67309
G1 X46.808 Y90.135 E46.70464
G1 X46.378 Y89.672 E46.73617
G1 X46.009 Y89.158 E46.76773
G1 X45.709 Y88.602 E46.79925
G1 X45.481 Y88.013 E46.83076
G1 X45.329 Y87.399 E46.86232
G1 X45.249 Y86.508 E46.90695
G1 X45.249 Y66.408 E47.90975
G1 X45.289 Y65.777 E47.94129
G1 X45.408 Y65.156 E47.97283
G1 X45.605 Y64.556 E48.00434
G1 X45.876 Y63.984 E48.03592
G1 X46.216 Y63.452 E48.06742
G1 X46.622 Y62.967 E48.09897
G1 X47.085 Y62.537 E48.1305
G0 F3600 X47.474 Y62.739
G1 F1800 X47.981 Y62.406 E48.16076
G1 X48.527 Y62.142 E48.19102
G1 X49.103 Y61.953 E48.22126
G1 X49.699 Y61.841 E48.25152
G1 X50.249 Y61.808 E48.27901
G1 X70.349 Y61.808 E49.2818
G1 X70.954 Y61.848 E49.31205
G1 X71.548 Y61.967 E49.34227
G1 X72.122 Y62.163 E49.37253
G1 X72.665 Y62.434 E49.40281
G1 X73.168 Y62.773 E49.43307
G1 X73.621 Y63.175 E49.46329
G1 X74.018 Y63.633 E49.49353
G1 X74.351 Y64.14 E49.52379
G1 X74.615 Y64.686 E49.55405
G1 X74.804 Y65.262 E49.58429
G1 X74.916 Y65.858 E49.61455
G1 X74.949 Y66.408 E49.64203
G1 X74.949 Y86.508 E50.64483
G1 X74.909 Y87.113 E50.67508
G1 X74.79 Y87.707 E50.7053
G1 X74.594 Y88.281 E50.73556
G1 X74.323 Y88.824 E50.76584
G1 X73.984 Y89.327 E50.7961
G1 X73.582 Y89.78 E50.82632
G1 X73.124 Y90.177 E50.85656
G1 X72.617 Y90.51 E50.88682
G1 X72.071 Y90.774 E50.91707
G1 X71.495 Y90.963 E50.94732
G1 X70.899 Y91.075 E50.97757
G1 X70.349 Y91.108 E51.00506
G1 X50.249 Y91.108 E52.00786
