;FLAVOR:Marlin
;TIME:554
;Filament used: 0.29745m
;Layer height: 0.1
;MINX:167.175
;MINY:237.175
;MINZ:0.3
;MAXX:192.825
;MAXY:262.825
;MAXZ:10
;Generated with Cura_SteamEngine 4.6.1
M104 S200
M105
M109 S200
M82 ;absolute extrusion mode
G21 ;metric values
G90 ;absolute positioning
M82 ;set extruder to absolute mode
G28 X0.0 Y0.0 Z0.0 ;Home
;G1 Z15.0 F9000 ;move the platform down 15mm
G92 X0 Y0 Z0 E0 ;zero the extruded length
G1 F200 E6 ;extrude 6 mm of feed stock
G92 E0 ;zero the extruded length again
G1 F9000
;Put printing message on LCD screen
;M117 Printing...
G1 F200 E3
G92 E0
G92 E0
G92 E0
G1 F1500 E-6.5
;LAYER_COUNT:98
;LAYER:0
M107
G0 F3600 X170.197 Y238.809 Z0.3
;TYPE:SKIRT
G1 F1500 E0
G1 F3600 X170.845 Y238.358 E0.03939
G1 X171.536 Y237.974 E0.07883
G1 X172.261 Y237.662 E0.11821
G1 X173.014 Y237.425 E0.15759
G1 X173.788 Y237.266 E0.19701
G1 X174.573 Y237.185 E0.23638
G1 X185.025 Y237.175 E0.75784
G1 X185.814 Y237.215 E0.79725
G1 X186.594 Y237.334 E0.83661
G1 X187.359 Y237.532 E0.87604
G1 X188.099 Y237.806 E0.91541
G1 X188.808 Y238.154 E0.95481
G1 X189.479 Y238.572 E0.99425
G1 X190.103 Y239.055 E1.03362
G1 X190.676 Y239.598 E1.073
G1 X191.191 Y240.197 E1.11241
G1 X191.642 Y240.845 E1.1518
G1 X192.026 Y241.536 E1.19124
G1 X192.338 Y242.261 E1.23062
G1 X192.575 Y243.014 E1.27
G1 X192.734 Y243.788 E1.30942
G1 X192.815 Y244.573 E1.3488
G1 X192.825 Y255.025 E1.87025
G1 X192.785 Y255.814 E1.90966
G1 X192.666 Y256.594 E1.94903
G1 X192.468 Y257.359 E1.98845
G1 X192.194 Y258.099 E2.02782
G1 X191.846 Y258.808 E2.06722
G1 X191.428 Y259.479 E2.10666
G1 X190.945 Y260.103 E2.14603
G1 X190.402 Y260.676 E2.18541
G1 X189.803 Y261.191 E2.22483
G1 X189.155 Y261.642 E2.26421
G1 X188.464 Y262.026 E2.30365
G1 X187.739 Y262.338 E2.34303
G1 X186.986 Y262.575 E2.38241
G1 X186.212 Y262.734 E2.42184
G1 X185.427 Y262.815 E2.46121
G1 X174.975 Y262.825 E2.98266
G1 X174.186 Y262.785 E3.02207
G1 X173.406 Y262.666 E3.06144
G1 X172.641 Y262.468 E3.10086
G1 X171.901 Y262.194 E3.14023
G1 X171.192 Y261.846 E3.17963
G1 X170.521 Y261.428 E3.21907
G1 X169.897 Y260.945 E3.25844
G1 X169.324 Y260.402 E3.29783
G1 X168.809 Y259.803 E3.33724
G1 X168.358 Y259.155 E3.37663
G1 X167.974 Y258.464 E3.41607
G1 X167.662 Y257.739 E3.45544
G1 X167.425 Y256.986 E3.49483
G1 X167.266 Y256.212 E3.53425
G1 X167.185 Y255.427 E3.57362
G1 X167.175 Y244.975 E4.09507
G1 X167.215 Y244.186 E4.13449
G1 X167.334 Y243.406 E4.17385
G1 X167.532 Y242.641 E4.21328
G1 X167.806 Y241.901 E4.25264
G1 X168.154 Y241.192 E4.29205
G1 X168.572 Y240.521 E4.33149
G1 X169.055 Y239.897 E4.37086
G1 X169.598 Y239.324 E4.41024
G1 X170.197 Y238.809 E4.44965
G0 X170.586 Y239.017
G1 X171.228 Y238.594 E4.48801
G1 X171.911 Y238.239 E4.52641
G1 X172.626 Y237.958 E4.56474
G1 X173.368 Y237.752 E4.60316
G1 X174.126 Y237.624 E4.64151
G1 X174.975 Y237.575 E4.68394
G1 X185.025 Y237.575 E5.18533
G1 X185.793 Y237.615 E5.2237
G1 X186.553 Y237.734 E5.26208
G1 X187.296 Y237.932 E5.30044
G1 X188.015 Y238.206 E5.33883
G1 X188.701 Y238.553 E5.37718
G1 X189.348 Y238.969 E5.41556
G1 X189.948 Y239.45 E5.45392
G1 X190.495 Y239.991 E5.49231
G1 X190.983 Y240.586 E5.5307
G1 X191.406 Y241.228 E5.56905
G1 X191.761 Y241.911 E5.60746
G1 X192.042 Y242.626 E5.64578
G1 X192.248 Y243.368 E5.6842
G1 X192.376 Y244.126 E5.72256
G1 X192.425 Y244.975 E5.76498
G1 X192.425 Y255.025 E6.26638
G1 X192.385 Y255.793 E6.30475
G1 X192.266 Y256.553 E6.34313
G1 X192.068 Y257.296 E6.38149
G1 X191.794 Y258.015 E6.41988
G1 X191.447 Y258.701 E6.45823
G1 X191.031 Y259.348 E6.4966
G1 X190.55 Y259.948 E6.53497
G1 X190.009 Y260.495 E6.57335
G1 X189.414 Y260.983 E6.61174
G1 X188.772 Y261.406 E6.6501
G1 X188.089 Y261.761 E6.6885
G1 X187.374 Y262.042 E6.72683
G1 X186.632 Y262.248 E6.76525
G1 X185.874 Y262.376 E6.8036
G1 X185.025 Y262.425 E6.84603
G1 X174.975 Y262.425 E7.34743
G1 X174.207 Y262.385 E7.38579
G1 X173.447 Y262.266 E7.42417
G1 X172.704 Y262.068 E7.46253
G1 X171.985 Y261.794 E7.50092
G1 X171.299 Y261.447 E7.53928
G1 X170.652 Y261.031 E7.57765
G1 X170.052 Y260.55 E7.61602
G1 X169.505 Y260.009 E7.6544
G1 X169.017 Y259.414 E7.69279
G1 X168.594 Y258.772 E7.73115
G1 X168.239 Y258.089 E7.76955
G1 X167.958 Y257.374 E7.80788
G1 X167.752 Y256.632 E7.8463
G1 X167.624 Y255.874 E7.88465
G1 X167.575 Y255.025 E7.92708
G1 X167.575 Y244.975 E8.42847
G1 X167.615 Y244.207 E8.46684
G1 X167.734 Y243.447 E8.50522
G1 X167.932 Y242.704 E8.54358
G1 X168.206 Y241.985 E8.58197
G1 X168.553 Y241.299 E8.62032
G1 X168.969 Y240.652 E8.6587
G1 X169.45 Y240.052 E8.69706
G1 X169.991 Y239.505 E8.73545
G1 X170.586 Y239.017 E8.77384
G0 X170.973 Y239.232
G1 X171.609 Y238.837 E8.81119
G1 X172.283 Y238.513 E8.8485
G1 X172.988 Y238.263 E8.88582
G1 X173.716 Y238.089 E8.92316
G1 X174.458 Y237.994 E8.96048
G1 X174.975 Y237.975 E8.98629
G1 X185.025 Y237.975 E9.48769
G1 X185.772 Y238.015 E9.52501
G1 X186.51 Y238.134 E9.56231
G1 X187.232 Y238.332 E9.59966
G1 X187.928 Y238.605 E9.63696
G1 X188.591 Y238.952 E9.67429
G1 X189.214 Y239.367 E9.71164
G1 X189.788 Y239.846 E9.74893
G1 X190.309 Y240.383 E9.78626
G1 X190.768 Y240.973 E9.82356
G1 X191.163 Y241.609 E9.86091
G1 X191.487 Y242.283 E9.89822
G1 X191.737 Y242.988 E9.93554
G1 X191.911 Y243.716 E9.97288
G1 X192.006 Y244.458 E10.0102
G1 X192.025 Y244.975 E10.03601
G1 X192.025 Y255.025 E10.53741
G1 X191.985 Y255.772 E10.57473
G1 X191.866 Y256.51 E10.61202
G1 X191.668 Y257.232 E10.64937
G1 X191.395 Y257.928 E10.68667
G1 X191.048 Y258.591 E10.72401
G1 X190.633 Y259.214 E10.76135
G1 X190.154 Y259.788 E10.79865
G1 X189.617 Y260.309 E10.83598
G1 X189.027 Y260.768 E10.87327
G1 X188.391 Y261.163 E10.91062
G1 X187.717 Y261.487 E10.94793
G1 X187.012 Y261.737 E10.98525
G1 X186.284 Y261.911 E11.02259
G1 X185.542 Y262.006 E11.05992
G1 X185.025 Y262.025 E11.08573
G1 X174.975 Y262.025 E11.58712
G1 X174.228 Y261.985 E11.62444
G1 X173.49 Y261.866 E11.66174
G1 X172.768 Y261.668 E11.69909
G1 X172.072 Y261.395 E11.73639
G1 X171.409 Y261.048 E11.77372
G1 X170.786 Y260.633 E11.81107
G1 X170.212 Y260.154 E11.84837
G1 X169.691 Y259.617 E11.88569
G1 X169.232 Y259.027 E11.92299
G1 X168.837 Y258.391 E11.96034
G1 X168.513 Y257.717 E11.99765
G1 X168.263 Y257.012 E12.03497
G1 X168.089 Y256.284 E12.07231
G1 X167.994 Y255.542 E12.10963
G1 X167.975 Y255.025 E12.13544
G1 X167.975 Y244.975 E12.63684
G1 X168.015 Y244.228 E12.67416
G1 X168.134 Y243.49 E12.71146
G1 X168.332 Y242.768 E12.74881
G1 X168.605 Y242.072 E12.78611
G1 X168.952 Y241.409 E12.82344
G1 X169.367 Y240.786 E12.86079
G1 X169.846 Y240.212 E12.89808
G1 X170.383 Y239.691 E12.93541
G1 X170.973 Y239.232 E12.97271
G0 X170.774 Y239.884
G1 X171.359 Y239.454 E13.00893
G1 X171.988 Y239.09 E13.04518
G1 X172.653 Y238.797 E13.08144
G1 X173.346 Y238.579 E13.11768
G1 X174.058 Y238.439 E13.15388
G1 X174.975 Y238.375 E13.19975
G1 X185.025 Y238.375 E13.70114
G1 X185.75 Y238.415 E13.73737
G1 X186.467 Y238.534 E13.77363
G1 X187.166 Y238.732 E13.80987
G1 X187.839 Y239.005 E13.84611
G1 X188.478 Y239.35 E13.88234
G1 X189.075 Y239.764 E13.91858
G1 X189.623 Y240.24 E13.9548
G1 X190.116 Y240.774 E13.99105
G1 X190.546 Y241.359 E14.02728
G1 X190.91 Y241.988 E14.06353
G1 X191.203 Y242.653 E14.09979
G1 X191.421 Y243.346 E14.13603
G1 X191.561 Y244.058 E14.17223
G1 X191.625 Y244.975 E14.21809
G1 X191.625 Y255.025 E14.71949
G1 X191.585 Y255.75 E14.75572
G1 X191.466 Y256.467 E14.79198
G1 X191.268 Y257.166 E14.82822
G1 X190.995 Y257.839 E14.86446
G1 X190.65 Y258.478 E14.90069
G1 X190.236 Y259.075 E14.93693
G1 X189.76 Y259.623 E14.97314
G1 X189.226 Y260.116 E15.0094
G1 X188.641 Y260.546 E15.04562
G1 X188.012 Y260.91 E15.08188
G1 X187.347 Y261.203 E15.11814
G1 X186.654 Y261.421 E15.15438
G1 X185.942 Y261.561 E15.19058
G1 X185.025 Y261.625 E15.23644
G1 X174.975 Y261.625 E15.73784
G1 X174.25 Y261.585 E15.77406
G1 X173.533 Y261.466 E15.81033
G1 X172.834 Y261.268 E15.84657
G1 X172.161 Y260.995 E15.8828
G1 X171.522 Y260.65 E15.91903
G1 X170.925 Y260.236 E15.95528
G1 X170.377 Y259.76 E15.99149
G1 X169.884 Y259.226 E16.02775
G1 X169.454 Y258.641 E16.06397
G1 X169.09 Y258.012 E16.10023
G1 X168.797 Y257.347 E16.13649
G1 X168.579 Y256.654 E16.17273
G1 X168.439 Y255.942 E16.20893
G1 X168.375 Y255.025 E16.25479
G1 X168.375 Y244.975 E16.75619
G1 X168.415 Y244.25 E16.79241
G1 X168.534 Y243.533 E16.82867
G1 X168.732 Y242.834 E16.86492
G1 X169.005 Y242.161 E16.90115
G1 X169.35 Y241.522 E16.93738
G1 X169.764 Y240.925 E16.97363
G1 X170.24 Y240.377 E17.00984
G1 X170.774 Y239.884 E17.0461
G0 X171.164 Y240.084
G1 X171.743 Y239.684 E17.08121
G1 X172.364 Y239.352 E17.11634
G1 X173.018 Y239.092 E17.15145
G1 X173.698 Y238.908 E17.1866
G1 X174.394 Y238.802 E17.22172
G1 X174.975 Y238.775 E17.25074
G1 X185.025 Y238.775 E17.75214
G1 X185.728 Y238.815 E17.78727
G1 X186.422 Y238.934 E17.8224
G1 X187.097 Y239.132 E17.85749
G1 X187.746 Y239.404 E17.8926
G1 X188.36 Y239.749 E17.92774
G1 X188.931 Y240.16 E17.96283
G1 X189.452 Y240.634 E17.99797
G1 X189.916 Y241.164 E18.03312
G1 X190.316 Y241.743 E18.06823
G1 X190.648 Y242.364 E18.10336
G1 X190.908 Y243.018 E18.13847
G1 X191.092 Y243.698 E18.17362
G1 X191.198 Y244.394 E18.20874
G1 X191.225 Y244.975 E18.23776
G1 X191.225 Y255.025 E18.73915
G1 X191.185 Y255.728 E18.77428
G1 X191.066 Y256.422 E18.80941
G1 X190.868 Y257.097 E18.84451
G1 X190.596 Y257.746 E18.87962
G1 X190.251 Y258.36 E18.91475
G1 X189.84 Y258.931 E18.94985
G1 X189.366 Y259.452 E18.98499
G1 X188.836 Y259.916 E19.02014
G1 X188.257 Y260.316 E19.05525
G1 X187.636 Y260.648 E19.09038
G1 X186.982 Y260.908 E19.12549
G1 X186.302 Y261.092 E19.16063
G1 X185.606 Y261.198 E19.19576
G1 X185.025 Y261.225 E19.22478
G1 X174.975 Y261.225 E19.72617
G1 X174.272 Y261.185 E19.7613
G1 X173.578 Y261.066 E19.79643
G1 X172.903 Y260.868 E19.83153
G1 X172.254 Y260.596 E19.86663
G1 X171.64 Y260.251 E19.90177
G1 X171.069 Y259.84 E19.93687
G1 X170.548 Y259.366 E19.97201
G1 X170.084 Y258.836 E20.00715
G1 X169.684 Y258.257 E20.04226
G1 X169.352 Y257.636 E20.07739
G1 X169.092 Y256.982 E20.11251
G1 X168.908 Y256.302 E20.14765
G1 X168.802 Y255.606 E20.18278
G1 X168.775 Y255.025 E20.21179
G1 X168.775 Y244.975 E20.71319
G1 X168.815 Y244.272 E20.74832
G1 X168.934 Y243.578 E20.78345
G1 X169.132 Y242.903 E20.81854
G1 X169.404 Y242.254 E20.85365
G1 X169.749 Y241.64 E20.88879
G1 X170.16 Y241.069 E20.92389
G1 X170.634 Y240.548 E20.95903
G1 X171.164 Y240.084 E20.99417
G0 X171.553 Y240.292
G1 X172.125 Y239.923 E21.02813
G1 X172.737 Y239.624 E21.06211
G1 X173.379 Y239.399 E21.09605
G1 X174.044 Y239.25 E21.13005
G1 X174.975 Y239.175 E21.17665
G1 X185.025 Y239.175 E21.67805
G1 X185.705 Y239.215 E21.71203
G1 X186.375 Y239.334 E21.74598
G1 X187.027 Y239.531 E21.77996
G1 X187.651 Y239.803 E21.81392
G1 X188.239 Y240.147 E21.84791
G1 X188.783 Y240.557 E21.88189
G1 X189.274 Y241.028 E21.91584
G1 X189.708 Y241.553 E21.94982
G1 X190.077 Y242.125 E21.98378
G1 X190.376 Y242.737 E22.01776
G1 X190.601 Y243.379 E22.0517
G1 X190.75 Y244.044 E22.0857
G1 X190.825 Y244.975 E22.1323
G1 X190.825 Y255.025 E22.6337
G1 X190.785 Y255.705 E22.66768
G1 X190.666 Y256.375 E22.70163
G1 X190.469 Y257.027 E22.73561
G1 X190.197 Y257.651 E22.76957
G1 X189.853 Y258.239 E22.80356
G1 X189.443 Y258.783 E22.83754
G1 X188.972 Y259.274 E22.87149
G1 X188.447 Y259.708 E22.90547
G1 X187.875 Y260.077 E22.93943
G1 X187.263 Y260.376 E22.97341
G1 X186.621 Y260.601 E23.00735
G1 X185.956 Y260.75 E23.04135
G1 X185.025 Y260.825 E23.08795
G1 X174.975 Y260.825 E23.58935
G1 X174.295 Y260.785 E23.62333
G1 X173.625 Y260.666 E23.65728
G1 X172.973 Y260.469 E23.69126
G1 X172.349 Y260.197 E23.72522
G1 X171.761 Y259.853 E23.75921
G1 X171.217 Y259.443 E23.7932
G1 X170.726 Y258.972 E23.82714
G1 X170.292 Y258.447 E23.86112
G1 X169.923 Y257.875 E23.89508
G1 X169.624 Y257.263 E23.92907
G1 X169.399 Y256.621 E23.963
G1 X169.25 Y255.956 E23.997
G1 X169.175 Y255.025 E24.0436
G1 X169.175 Y244.975 E24.545
G1 X169.215 Y244.295 E24.57898
G1 X169.334 Y243.625 E24.61293
G1 X169.531 Y242.973 E24.64691
G1 X169.803 Y242.349 E24.68087
G1 X170.147 Y241.761 E24.71486
G1 X170.557 Y241.217 E24.74885
G1 X171.028 Y240.726 E24.78279
G1 X171.553 Y240.292 E24.81677
G0 X171.42 Y240.91
G1 X171.94 Y240.509 E24.84953
G1 X172.504 Y240.173 E24.88229
G1 X173.106 Y239.909 E24.91508
G1 X173.735 Y239.719 E24.94786
G1 X174.382 Y239.608 E24.98061
G1 X174.975 Y239.575 E25.01025
G1 X185.025 Y239.575 E25.51164
G1 X185.681 Y239.615 E25.54443
G1 X186.327 Y239.734 E25.5772
G1 X186.954 Y239.931 E25.60999
G1 X187.552 Y240.203 E25.64277
G1 X188.113 Y240.545 E25.67555
G1 X188.628 Y240.953 E25.70832
G1 X189.09 Y241.42 E25.7411
G1 X189.491 Y241.94 E25.77386
G1 X189.827 Y242.504 E25.80661
G1 X190.091 Y243.106 E25.83941
G1 X190.281 Y243.735 E25.87219
G1 X190.392 Y244.382 E25.90494
G1 X190.425 Y244.975 E25.93457
G1 X190.425 Y255.025 E26.43597
G1 X190.385 Y255.681 E26.46876
G1 X190.266 Y256.327 E26.50153
G1 X190.069 Y256.954 E26.53432
G1 X189.797 Y257.552 E26.56709
G1 X189.455 Y258.113 E26.59987
G1 X189.047 Y258.628 E26.63265
G1 X188.58 Y259.09 E26.66542
G1 X188.06 Y259.491 E26.69818
G1 X187.496 Y259.827 E26.73094
G1 X186.894 Y260.091 E26.76373
G1 X186.265 Y260.281 E26.79651
G1 X185.618 Y260.392 E26.82926
G1 X185.025 Y260.425 E26.85889
G1 X174.975 Y260.425 E27.36029
G1 X174.319 Y260.385 E27.39308
G1 X173.673 Y260.266 E27.42585
G1 X173.046 Y260.069 E27.45864
G1 X172.448 Y259.797 E27.49142
G1 X171.887 Y259.455 E27.52419
G1 X171.372 Y259.047 E27.55697
G1 X170.91 Y258.58 E27.58975
G1 X170.509 Y258.06 E27.62251
G1 X170.173 Y257.496 E27.65526
G1 X169.909 Y256.894 E27.68806
G1 X169.719 Y256.265 E27.72084
G1 X169.608 Y255.618 E27.75359
G1 X169.575 Y255.025 E27.78322
G1 X169.575 Y244.975 E28.28462
G1 X169.615 Y244.319 E28.3174
G1 X169.734 Y243.673 E28.35018
G1 X169.931 Y243.046 E28.38296
G1 X170.203 Y242.448 E28.41574
G1 X170.545 Y241.887 E28.44852
G1 X170.953 Y241.372 E28.4813
G1 X171.42 Y240.91 E28.51407
G0 X171.811 Y241.104
G1 X172.325 Y240.735 E28.54564
G1 X172.881 Y240.435 E28.57716
G1 X173.47 Y240.207 E28.60867
G1 X174.084 Y240.055 E28.64023
G1 X174.975 Y239.975 E28.68486
G1 X185.025 Y239.975 E29.18625
G1 X185.656 Y240.015 E29.2178
G1 X186.277 Y240.134 E29.24934
G1 X186.877 Y240.331 E29.28085
G1 X187.449 Y240.602 E29.31243
G1 X187.981 Y240.942 E29.34393
G1 X188.466 Y241.348 E29.37548
G1 X188.896 Y241.811 E29.40701
G1 X189.265 Y242.325 E29.43857
G1 X189.565 Y242.881 E29.47009
G1 X189.793 Y243.47 E29.5016
G1 X189.945 Y244.084 E29.53316
G1 X190.025 Y244.975 E29.57779
G1 X190.025 Y255.025 E30.07919
G1 X189.985 Y255.656 E30.11073
G1 X189.866 Y256.277 E30.14228
G1 X189.669 Y256.877 E30.17378
G1 X189.398 Y257.449 E30.20536
G1 X189.058 Y257.981 E30.23686
G1 X188.652 Y258.466 E30.26842
G1 X188.189 Y258.896 E30.29994
G1 X187.675 Y259.265 E30.33151
G1 X187.119 Y259.565 E30.36303
G1 X186.53 Y259.793 E30.39454
G1 X185.916 Y259.945 E30.42609
G1 X185.025 Y260.025 E30.47073
G1 X174.975 Y260.025 E30.97212
G1 X174.344 Y259.985 E31.00367
G1 X173.723 Y259.866 E31.03521
G1 X173.123 Y259.669 E31.06672
G1 X172.551 Y259.398 E31.0983
G1 X172.019 Y259.058 E31.1298
G1 X171.534 Y258.652 E31.16135
G1 X171.104 Y258.189 E31.19288
G1 X170.735 Y257.675 E31.22444
G1 X170.435 Y257.119 E31.25596
G1 X170.207 Y256.53 E31.28747
G1 X170.055 Y255.916 E31.31903
G1 X169.975 Y255.025 E31.36366
G1 X169.975 Y244.975 E31.86506
G1 X170.015 Y244.344 E31.8966
G1 X170.134 Y243.723 E31.92815
G1 X170.331 Y243.123 E31.95965
G1 X170.602 Y242.551 E31.99123
G1 X170.942 Y242.019 E32.02273
G1 X171.348 Y241.534 E32.05429
G1 X171.811 Y241.104 E32.08581
G0 X172.2 Y241.306
G1 X172.707 Y240.973 E32.11607
G1 X173.253 Y240.709 E32.14633
G1 X173.829 Y240.52 E32.17657
