;FLAVOR:Marlin
;TIME:2114
;Filament used: 1.41434m
;Layer height: 0.1
;MINX:84.65
;MINY:84.65
;MINZ:0.3
;MAXX:120.35
;MAXY:120.35
;MAXZ:20.1
;Generated with Cura_SteamEngine 4.6.1
M104 S200
M105
M109 S200
M82 ;absolute extrusion mode
G21 ;metric values
G90 ;absolute positioning
M82 ;set extruder to absolute mode
M107 ;start with the fan off
G28 X0 Y0 ;move X/Y to min endstops
G28 Z0 ;move Z to min endstops
;G1 Z15.0 F9000 ;move the platform down 15mm
G92 E0 ;zero the extruded length
G1 F200 E6 ;extrude 6 mm of feed stock
G92 E0 ;zero the extruded length again
G1 F9000
;Put printing message on LCD screen
M117 Printing...
G92 E0
G92 E0
G1 F1500 E-6.5
;LAYER_COUNT:199
;LAYER:0
M107
G0 F3600 X87.073 Y86.799 Z0.3
;TYPE:SKIRT
G1 F1500 E0
G1 F1800 X87.672 Y86.284 E0.03941
G1 X88.32 Y85.833 E0.0788
G1 X89.011 Y85.449 E0.11824
G1 X89.736 Y85.137 E0.15762
G1 X90.489 Y84.9 E0.197
G1 X91.263 Y84.741 E0.23642
G1 X92.048 Y84.66 E0.27579
G1 X112.55 Y84.65 E1.29864
G1 X113.339 Y84.69 E1.33806
G1 X114.119 Y84.809 E1.37742
G1 X114.884 Y85.007 E1.41684
G1 X115.624 Y85.281 E1.45621
G1 X116.333 Y85.629 E1.49562
G1 X117.004 Y86.047 E1.53506
G1 X117.628 Y86.53 E1.57442
G1 X118.201 Y87.073 E1.61381
G1 X118.716 Y87.672 E1.65322
G1 X119.167 Y88.32 E1.69261
G1 X119.551 Y89.011 E1.73205
G1 X119.863 Y89.736 E1.77143
G1 X120.1 Y90.489 E1.81081
G1 X120.259 Y91.263 E1.85023
G1 X120.34 Y92.048 E1.8896
G1 X120.35 Y112.55 E2.91245
G1 X120.31 Y113.339 E2.95187
G1 X120.191 Y114.119 E2.99123
G1 X119.993 Y114.884 E3.03065
G1 X119.719 Y115.624 E3.07002
G1 X119.371 Y116.333 E3.10943
G1 X118.953 Y117.004 E3.14887
G1 X118.47 Y117.628 E3.18823
G1 X117.927 Y118.201 E3.22762
G1 X117.328 Y118.716 E3.26703
G1 X116.68 Y119.167 E3.30642
G1 X115.989 Y119.551 E3.34586
G1 X115.264 Y119.863 E3.38523
G1 X114.511 Y120.1 E3.42462
G1 X113.737 Y120.259 E3.46404
G1 X112.952 Y120.34 E3.50341
G1 X92.45 Y120.35 E4.52626
G1 X91.661 Y120.31 E4.56567
G1 X90.881 Y120.191 E4.60504
G1 X90.116 Y119.993 E4.64446
G1 X89.376 Y119.719 E4.68383
G1 X88.667 Y119.371 E4.72323
G1 X87.996 Y118.953 E4.76267
G1 X87.372 Y118.47 E4.80204
G1 X86.799 Y117.927 E4.84143
G1 X86.284 Y117.328 E4.88084
G1 X85.833 Y116.68 E4.92023
G1 X85.449 Y115.989 E4.95967
G1 X85.137 Y115.264 E4.99904
G1 X84.9 Y114.511 E5.03843
G1 X84.741 Y113.737 E5.07785
G1 X84.66 Y112.952 E5.11722
G1 X84.65 Y92.45 E6.14007
G1 X84.69 Y91.661 E6.17948
G1 X84.809 Y90.881 E6.21885
G1 X85.007 Y90.116 E6.25827
G1 X85.281 Y89.376 E6.29764
G1 X85.629 Y88.667 E6.33704
G1 X86.047 Y87.996 E6.37648
G1 X86.53 Y87.372 E6.41585
G1 X87.073 Y86.799 E6.45524
G0 F3600 X87.466 Y86.98
G1 F1800 X88.061 Y86.492 E6.49363
G1 X88.703 Y86.069 E6.53198
G1 X89.386 Y85.714 E6.57039
G1 X90.101 Y85.433 E6.60872
G1 X90.843 Y85.227 E6.64713
G1 X91.601 Y85.099 E6.68549
G1 X92.45 Y85.05 E6.72791
G1 X112.55 Y85.05 E7.73071
G1 X113.318 Y85.09 E7.76907
G1 X114.078 Y85.209 E7.80745
G1 X114.821 Y85.407 E7.84581
G1 X115.54 Y85.681 E7.8842
G1 X116.226 Y86.028 E7.92256
G1 X116.873 Y86.444 E7.96093
G1 X117.473 Y86.925 E7.9993
G1 X118.02 Y87.466 E8.03768
G1 X118.508 Y88.061 E8.07607
G1 X118.931 Y88.703 E8.11443
G1 X119.286 Y89.386 E8.15283
G1 X119.567 Y90.101 E8.19116
G1 X119.773 Y90.843 E8.22958
G1 X119.901 Y91.601 E8.26793
G1 X119.95 Y92.45 E8.31036
G1 X119.95 Y112.55 E9.31315
G1 X119.91 Y113.318 E9.35152
G1 X119.791 Y114.078 E9.3899
G1 X119.593 Y114.821 E9.42826
G1 X119.319 Y115.54 E9.46665
G1 X118.972 Y116.226 E9.505
G1 X118.556 Y116.873 E9.54338
G1 X118.075 Y117.473 E9.58174
G1 X117.534 Y118.02 E9.62012
G1 X116.939 Y118.508 E9.65852
G1 X116.297 Y118.931 E9.69687
G1 X115.614 Y119.286 E9.73527
G1 X114.899 Y119.567 E9.7736
G1 X114.157 Y119.773 E9.81202
G1 X113.399 Y119.901 E9.85037
G1 X112.55 Y119.95 E9.8928
G1 X92.45 Y119.95 E10.89559
G1 X91.682 Y119.91 E10.93396
G1 X90.922 Y119.791 E10.97234
G1 X90.179 Y119.593 E11.0107
G1 X89.46 Y119.319 E11.04909
G1 X88.774 Y118.972 E11.08744
G1 X88.127 Y118.556 E11.12582
G1 X87.527 Y118.075 E11.16418
G1 X86.98 Y117.534 E11.20257
G1 X86.492 Y116.939 E11.24096
G1 X86.069 Y116.297 E11.27932
G1 X85.714 Y115.614 E11.31772
G1 X85.433 Y114.899 E11.35605
G1 X85.227 Y114.157 E11.39446
G1 X85.099 Y113.399 E11.43282
G1 X85.05 Y112.55 E11.47524
G1 X85.05 Y92.45 E12.47804
G1 X85.09 Y91.682 E12.5164
G1 X85.209 Y90.922 E12.55478
G1 X85.407 Y90.179 E12.59315
G1 X85.681 Y89.46 E12.63153
G1 X86.028 Y88.774 E12.66989
G1 X86.444 Y88.127 E12.70826
G1 X86.925 Y87.527 E12.74663
G1 X87.466 Y86.98 E12.78501
G0 F3600 X87.858 Y87.166
G1 F1800 X88.448 Y86.707 E12.8223
G1 X89.084 Y86.312 E12.85966
G1 X89.758 Y85.988 E12.89697
G1 X90.463 Y85.738 E12.93428
G1 X91.191 Y85.564 E12.97163
G1 X91.933 Y85.469 E13.00895
G1 X92.45 Y85.45 E13.03476
G1 X112.55 Y85.45 E14.03755
G1 X113.297 Y85.49 E14.07487
G1 X114.035 Y85.609 E14.11217
G1 X114.757 Y85.807 E14.14952
G1 X115.453 Y86.08 E14.18682
G1 X116.116 Y86.427 E14.22415
G1 X116.739 Y86.842 E14.2615
G1 X117.313 Y87.321 E14.2988
G1 X117.834 Y87.858 E14.33612
G1 X118.293 Y88.448 E14.37342
G1 X118.688 Y89.084 E14.41077
G1 X119.012 Y89.758 E14.44808
G1 X119.262 Y90.463 E14.4854
G1 X119.436 Y91.191 E14.52274
G1 X119.531 Y91.933 E14.56006
G1 X119.55 Y92.45 E14.58587
G1 X119.55 Y112.55 E15.58866
G1 X119.51 Y113.297 E15.62599
G1 X119.391 Y114.035 E15.66328
G1 X119.193 Y114.757 E15.70063
G1 X118.92 Y115.453 E15.73793
G1 X118.573 Y116.116 E15.77526
G1 X118.158 Y116.739 E15.81261
G1 X117.679 Y117.313 E15.84991
G1 X117.142 Y117.834 E15.88724
G1 X116.552 Y118.293 E15.92453
G1 X115.916 Y118.688 E15.96188
G1 X115.242 Y119.012 E15.99919
G1 X114.537 Y119.262 E16.03651
G1 X113.809 Y119.436 E16.07385
G1 X113.067 Y119.531 E16.11117
G1 X112.55 Y119.55 E16.13698
G1 X92.45 Y119.55 E17.13978
G1 X91.703 Y119.51 E17.1771
G1 X90.965 Y119.391 E17.21439
G1 X90.243 Y119.193 E17.25174
G1 X89.547 Y118.92 E17.28904
G1 X88.884 Y118.573 E17.32638
G1 X88.261 Y118.158 E17.36372
G1 X87.687 Y117.679 E17.40102
G1 X87.166 Y117.142 E17.43835
G1 X86.707 Y116.552 E17.47564
G1 X86.312 Y115.916 E17.513
G1 X85.988 Y115.242 E17.55031
G1 X85.738 Y114.537 E17.58762
G1 X85.564 Y113.809 E17.62497
G1 X85.469 Y113.067 E17.66229
G1 X85.45 Y112.55 E17.6881
G1 X85.45 Y92.45 E18.69089
G1 X85.49 Y91.703 E18.72821
G1 X85.609 Y90.965 E18.76551
G1 X85.807 Y90.243 E18.80286
G1 X86.08 Y89.547 E18.84016
G1 X86.427 Y88.884 E18.87749
G1 X86.842 Y88.261 E18.91484
G1 X87.321 Y87.687 E18.95214
G1 X87.858 Y87.166 E18.98946
G0 F3600 X87.715 Y87.852
G1 F1800 X88.249 Y87.359 E19.02572
G1 X88.834 Y86.929 E19.06194
G1 X89.463 Y86.565 E19.0982
G1 X90.128 Y86.272 E19.13446
G1 X90.821 Y86.054 E19.1707
G1 X91.533 Y85.914 E19.2069
G1 X92.45 Y85.85 E19.25276
G1 X112.55 Y85.85 E20.25556
G1 X113.275 Y85.89 E20.29178
G1 X113.992 Y86.009 E20.32804
G1 X114.691 Y86.207 E20.36429
G1 X115.364 Y86.48 E20.40052
G1 X116.003 Y86.825 E20.43675
G1 X116.6 Y87.239 E20.473
G1 X117.148 Y87.715 E20.50921
G1 X117.641 Y88.249 E20.54547
G1 X118.071 Y88.834 E20.58169
G1 X118.435 Y89.463 E20.61795
G1 X118.728 Y90.128 E20.6542
G1 X118.946 Y90.821 E20.69045
G1 X119.086 Y91.533 E20.72665
G1 X119.15 Y92.45 E20.77251
G1 X119.15 Y112.55 E21.7753
G1 X119.11 Y113.275 E21.81153
G1 X118.991 Y113.992 E21.84779
G1 X118.793 Y114.691 E21.88403
G1 X118.52 Y115.364 E21.92027
G1 X118.175 Y116.003 E21.9565
G1 X117.761 Y116.6 E21.99274
G1 X117.285 Y117.148 E22.02895
G1 X116.751 Y117.641 E22.06521
G1 X116.166 Y118.071 E22.10144
G1 X115.537 Y118.435 E22.13769
G1 X114.872 Y118.728 E22.17395
G1 X114.179 Y118.946 E22.21019
G1 X113.467 Y119.086 E22.24639
G1 X112.55 Y119.15 E22.29225
G1 X92.45 Y119.15 E23.29505
G1 X91.725 Y119.11 E23.33127
G1 X91.008 Y118.991 E23.36753
G1 X90.309 Y118.793 E23.40378
G1 X89.636 Y118.52 E23.44001
G1 X88.997 Y118.175 E23.47624
G1 X88.4 Y117.761 E23.51249
G1 X87.852 Y117.285 E23.5487
G1 X87.359 Y116.751 E23.58496
G1 X86.929 Y116.166 E23.62118
G1 X86.565 Y115.537 E23.65744
G1 X86.272 Y114.872 E23.69369
G1 X86.054 Y114.179 E23.72994
G1 X85.914 Y113.467 E23.76614
G1 X85.85 Y112.55 E23.812
G1 X85.85 Y92.45 E24.81479
G1 X85.89 Y91.725 E24.85102
G1 X86.009 Y91.008 E24.88728
G1 X86.207 Y90.309 E24.92352
G1 X86.48 Y89.636 E24.95976
G1 X86.825 Y88.997 E24.99599
G1 X87.239 Y88.4 E25.03223
G1 X87.715 Y87.852 E25.06844
G0 F3600 X88.109 Y88.023
G1 F1800 X88.639 Y87.559 E25.10359
G1 X89.218 Y87.159 E25.1387
G1 X89.839 Y86.827 E25.17383
G1 X90.493 Y86.567 E25.20894
G1 X91.173 Y86.383 E25.24409
G1 X91.869 Y86.277 E25.27921
G1 X92.45 Y86.25 E25.30823
G1 X112.55 Y86.25 E26.31102
G1 X113.253 Y86.29 E26.34615
G1 X113.947 Y86.409 E26.38128
G1 X114.622 Y86.607 E26.41637
G1 X115.271 Y86.879 E26.45148
G1 X115.885 Y87.224 E26.48662
G1 X116.456 Y87.635 E26.52172
G1 X116.977 Y88.109 E26.55686
G1 X117.441 Y88.639 E26.592
G1 X117.841 Y89.218 E26.62711
G1 X118.173 Y89.839 E26.66224
G1 X118.433 Y90.493 E26.69736
G1 X118.617 Y91.173 E26.7325
G1 X118.723 Y91.869 E26.76762
G1 X118.75 Y92.45 E26.79664
G1 X118.75 Y112.55 E27.79944
G1 X118.71 Y113.253 E27.83456
G1 X118.591 Y113.947 E27.86969
G1 X118.393 Y114.622 E27.90479
G1 X118.121 Y115.271 E27.9399
G1 X117.776 Y115.885 E27.97503
G1 X117.365 Y116.456 E28.01013
G1 X116.891 Y116.977 E28.04527
G1 X116.361 Y117.441 E28.08042
G1 X115.782 Y117.841 E28.11553
G1 X115.161 Y118.173 E28.15066
G1 X114.507 Y118.433 E28.18577
G1 X113.827 Y118.617 E28.22091
G1 X113.131 Y118.723 E28.25604
G1 X112.55 Y118.75 E28.28506
G1 X92.45 Y118.75 E29.28785
G1 X91.747 Y118.71 E29.32298
G1 X91.053 Y118.591 E29.35811
G1 X90.378 Y118.393 E29.3932
G1 X89.729 Y118.121 E29.42831
G1 X89.115 Y117.776 E29.46345
G1 X88.544 Y117.365 E29.49855
G1 X88.023 Y116.891 E29.53369
G1 X87.559 Y116.361 E29.56883
G1 X87.159 Y115.782 E29.60394
G1 X86.827 Y115.161 E29.63907
G1 X86.567 Y114.507 E29.67418
G1 X86.383 Y113.827 E29.70933
G1 X86.277 Y113.131 E29.74445
G1 X86.25 Y112.55 E29.77347
G1 X86.25 Y92.45 E30.77626
G1 X86.29 Y91.747 E30.81139
G1 X86.409 Y91.053 E30.84652
G1 X86.607 Y90.378 E30.88162
G1 X86.879 Y89.729 E30.91672
G1 X87.224 Y89.115 E30.95186
G1 X87.635 Y88.544 E30.98696
G1 X88.109 Y88.023 E31.0221
G0 F3600 X88.503 Y88.201
G1 F1800 X89.028 Y87.767 E31.05608
G1 X89.6 Y87.398 E31.09004
G1 X90.212 Y87.099 E31.12403
G1 X90.854 Y86.874 E31.15797
G1 X91.519 Y86.725 E31.19197
G1 X92.45 Y86.65 E31.23856
G1 X112.55 Y86.65 E32.24136
G1 X113.23 Y86.69 E32.27534
G1 X113.9 Y86.809 E32.30929
G1 X114.552 Y87.006 E32.34327
G1 X115.176 Y87.278 E32.37723
G1 X115.764 Y87.622 E32.41122
G1 X116.308 Y88.032 E32.4452
G1 X116.799 Y88.503 E32.47915
G1 X117.233 Y89.028 E32.51313
G1 X117.602 Y89.6 E32.54709
G1 X117.901 Y90.212 E32.58107
G1 X118.126 Y90.854 E32.61501
G1 X118.275 Y91.519 E32.64901
G1 X118.35 Y92.45 E32.69561
G1 X118.35 Y112.55 E33.6984
G1 X118.31 Y113.23 E33.73239
G1 X118.191 Y113.9 E33.76634
G1 X117.994 Y114.552 E33.80032
G1 X117.722 Y115.176 E33.83428
G1 X117.378 Y115.764 E33.86827
G1 X116.968 Y116.308 E33.90225
G1 X116.497 Y116.799 E33.9362
G1 X115.972 Y117.233 E33.97018
G1 X115.4 Y117.602 E34.00414
G1 X114.788 Y117.901 E34.03812
G1 X114.146 Y118.126 E34.07206
G1 X113.481 Y118.275 E34.10606
G1 X112.55 Y118.35 E34.15266
G1 X92.45 Y118.35 E35.15545
G1 X91.77 Y118.31 E35.18944
G1 X91.1 Y118.191 E35.22339
G1 X90.448 Y117.994 E35.25737
G1 X89.824 Y117.722 E35.29133
G1 X89.236 Y117.378 E35.32531
G1 X88.692 Y116.968 E35.3593
G1 X88.201 Y116.497 E35.39324
G1 X87.767 Y115.972 E35.42723
G1 X87.398 Y115.4 E35.46119
G1 X87.099 Y114.788 E35.49517
G1 X86.874 Y114.146 E35.52911
G1 X86.725 Y113.481 E35.56311
G1 X86.65 Y112.55 E35.60971
G1 X86.65 Y92.45 E36.6125
G1 X86.69 Y91.77 E36.64648
G1 X86.809 Y91.1 E36.68043
G1 X87.006 Y90.448 E36.71441
G1 X87.278 Y89.824 E36.74837
G1 X87.622 Y89.236 E36.78236
G1 X88.032 Y88.692 E36.81635
G1 X88.503 Y88.201 E36.85029
G0 F3600 X88.895 Y88.385
G1 F1800 X89.415 Y87.984 E36.88305
G1 X89.979 Y87.648 E36.9158
G1 X90.581 Y87.384 E36.9486
G1 X91.21 Y87.194 E36.98138
G1 X91.857 Y87.083 E37.01413
G1 X92.45 Y87.05 E37.04376
G1 X112.55 Y87.05 E38.04655
G1 X113.206 Y87.09 E38.07934
G1 X113.852 Y87.209 E38.11211
G1 X114.479 Y87.406 E38.1449
G1 X115.077 Y87.678 E38.17768
G1 X115.638 Y88.02 E38.21046
G1 X116.153 Y88.428 E38.24324
G1 X116.615 Y88.895 E38.27601
G1 X117.016 Y89.415 E38.30877
G1 X117.352 Y89.979 E38.34153
G1 X117.616 Y90.581 E38.37432
G1 X117.806 Y91.21 E38.4071
G1 X117.917 Y91.857 E38.43985
G1 X117.95 Y92.45 E38.46948
G1 X117.95 Y112.55 E39.47228
G1 X117.91 Y113.206 E39.50506
G1 X117.791 Y113.852 E39.53784
G1 X117.594 Y114.479 E39.57062
G1 X117.322 Y115.077 E39.6034
G1 X116.98 Y115.638 E39.63618
G1 X116.572 Y116.153 E39.66896
G1 X116.105 Y116.615 E39.70173
G1 X115.585 Y117.016 E39.73449
G1 X115.021 Y117.352 E39.76725
G1 X114.419 Y117.616 E39.80004
G1 X113.79 Y117.806 E39.83282
G1 X113.143 Y117.917 E39.86557
G1 X112.55 Y117.95 E39.8952
G1 X92.45 Y117.95 E40.898
G1 X91.794 Y117.91 E40.93079
G1 X91.148 Y117.791 E40.96356
G1 X90.521 Y117.594 E40.99635
G1 X89.923 Y117.322 E41.02912
G1 X89.362 Y116.98 E41.0619
G1 X88.847 Y116.572 E41.09468
G1 X88.385 Y116.105 E41.12745
G1 X87.984 Y115.585 E41.16021
G1 X87.648 Y115.021 E41.19297
G1 X87.384 Y114.419 E41.22576
G1 X87.194 Y113.79 E41.25854
G1 X87.083 Y113.143 E41.29129
G1 X87.05 Y112.55 E41.32092
G1 X87.05 Y92.45 E42.32372
G1 X87.09 Y91.794 E42.35651
G1 X87.209 Y91.148 E42.38928
G1 X87.406 Y90.521 E42.42207
G1 X87.678 Y89.923 E42.45484
G1 X88.02 Y89.362 E42.48762
G1 X88.428 Y88.847 E42.5204
G1 X88.895 Y88.385 E42.55317
G0 F3600 X88.823 Y89.009
G1 F1800 X89.286 Y88.579 E42.5847
G1 X89.8 Y88.21 E42.61627
G1 X90.356 Y87.91 E42.64779
G1 X90.945 Y87.682 E42.6793
G1 X91.559 Y87.53 E42.71085
G1 X92.45 Y87.45 E42.75548
G1 X112.55 Y87.45 E43.75828
G1 X113.181 Y87.49 E43.78982
G1 X113.802 Y87.609 E43.82137
G1 X114.402 Y87.806 E43.85287
G1 X114.974 Y88.077 E43.88445
G1 X115.506 Y88.417 E43.91595
G1 X115.991 Y88.823 E43.94751
G1 X116.421 Y89.286 E43.97903
G1 X116.79 Y89.8 E44.0106
G1 X117.09 Y90.356 E44.04212
G1 X117.318 Y90.945 E44.07363
G1 X117.47 Y91.559 E44.10518
G1 X117.55 Y92.45 E44.14981
G1 X117.55 Y112.55 E45.15261
G1 X117.51 Y113.181 E45.18415
G1 X117.391 Y113.802 E45.2157
G1 X117.194 Y114.402 E45.2472
G1 X116.923 Y114.974 E45.27878
G1 X116.583 Y115.506 E45.31028
G1 X116.177 Y115.991 E45.34184
G1 X115.714 Y116.421 E45.37336
G1 X115.2 Y116.79 E45.40493
G1 X114.644 Y117.09 E45.43645
G1 X114.055 Y117.318 E45.46796
G1 X113.441 Y117.47 E45.49951
G1 X112.55 Y117.55 E45.54415
G1 X92.45 Y117.55 E46.54694
G1 X91.819 Y117.51 E46.57848
G1 X91.198 Y117.391 E46.61003
G1 X90.598 Y117.194 E46.64153
G1 X90.026 Y116.923 E46.67311
G1 X89.494 Y116.583 E46.70461
G1 X89.009 Y116.177 E46.73617
G1 X88.579 Y115.714 E46.76769
G1 X88.21 Y115.2 E46.79926
G1 X87.91 Y114.644 E46.83078
G1 X87.682 Y114.055 E46.86229
G1 X87.53 Y113.441 E46.89385
G1 X87.45 Y112.55 E46.93848
G1 X87.45 Y92.45 E47.94127
G1 X87.49 Y91.819 E47.97281
G1 X87.609 Y91.198 E48.00436
G1 X87.806 Y90.598 E48.03587
G1 X88.077 Y90.026 E48.06744
G1 X88.417 Y89.494 E48.09894
G1 X88.823 Y89.009 E48.1305
G0 F3600 X89.217 Y89.178
G1 F1800 X89.675 Y88.781 E48.16074
G1 X90.182 Y88.448 E48.191
G1 X90.728 Y88.184 E48.22126
G1 X91.304 Y87.995 E48.2515
G1 X91.9 Y87.883 E48.28176
G1 X92.45 Y87.85 E48.30925
G1 X112.55 Y87.85 E49.31204
G1 X113.155 Y87.89 E49.34229
G1 X113.749 Y88.009 E49.37251
G1 X114.323 Y88.205 E49.40277
G1 X114.866 Y88.476 E49.43305
G1 X115.369 Y88.815 E49.46331
G1 X115.822 Y89.217 E49.49353
G1 X116.219 Y89.675 E49.52377
G1 X116.552 Y90.182 E49.55403
G1 X116.816 Y90.728 E49.58429
G1 X117.005 Y91.304 E49.61453
G1 X117.117 Y91.9 E49.64478
G1 X117.15 Y92.45 E49.67227
G1 X117.15 Y112.55 E50.67507
