;FLAVOR:Marlin
;TIME:6368
;Filament used: 1.41436m
;Layer height: 0.1
;MINX:32.418
;MINY:67.588
;MINZ:0.3
;MAXX:68.118
;MAXY:103.288
;MAXZ:20.1
;Generated with Cura_SteamEngine 4.6.1
M104 S200
M105
M109 S200
M82 ;absolute extrusion mode
G21 ;metric values
G90 ;absolute positioning
M82 ;set extruder to absolute mode
G28 X0.0 Y0.0 Z0.0 ;Home
;G1 Z15.0 F9000 ;move the platform down 15mm
G92 X0 Y0 Z0 E0 ;zero the extruded length
G1 F200 Z10.0
G1 F200 E6 ;extrude 6 mm of feed stock
G1 F200 X10.0 Y10.0 Z0.0
G92 E0 ;zero the extruded length again
G1 F9000
;Put printing message on LCD screen
;M117 Printing...
G1 F200 E3
G92 E0
G92 E0
G92 E0
G1 F1500 E-6.5
;LAYER_COUNT:199
;LAYER:0
M107
G0 F600 X36.779 Y68.387 Z0.3
;TYPE:SKIRT
G1 F1500 E0
G1 F600 X37.504 Y68.075 E0.03938
G1 X38.257 Y67.838 E0.07876
G1 X39.031 Y67.679 E0.11818
G1 X39.816 Y67.598 E0.15755
G1 X60.318 Y67.588 E1.1804
G1 X61.107 Y67.628 E1.21982
G1 X61.887 Y67.747 E1.25918
G1 X62.652 Y67.945 E1.29861
G1 X63.392 Y68.219 E1.33797
G1 X64.101 Y68.567 E1.37738
G1 X64.772 Y68.985 E1.41682
G1 X65.396 Y69.468 E1.45619
G1 X65.969 Y70.011 E1.49557
G1 X66.484 Y70.61 E1.53498
G1 X66.935 Y71.258 E1.57437
G1 X67.319 Y71.949 E1.61381
G1 X67.631 Y72.674 E1.65319
G1 X67.868 Y73.427 E1.69257
G1 X68.027 Y74.201 E1.73199
G1 X68.108 Y74.986 E1.77136
G1 X68.118 Y95.488 E2.79421
G1 X68.078 Y96.277 E2.83363
G1 X67.959 Y97.057 E2.87299
G1 X67.761 Y97.822 E2.91242
G1 X67.487 Y98.562 E2.95178
G1 X67.139 Y99.271 E2.99119
G1 X66.721 Y99.942 E3.03063
G1 X66.238 Y100.566 E3.07
G1 X65.695 Y101.139 E3.10938
G1 X65.096 Y101.654 E3.14879
G1 X64.448 Y102.105 E3.18818
G1 X63.757 Y102.489 E3.22762
G1 X63.032 Y102.801 E3.267
G1 X62.279 Y103.038 E3.30638
G1 X61.505 Y103.197 E3.3458
G1 X60.72 Y103.278 E3.38517
G1 X40.218 Y103.288 E4.40802
G1 X39.429 Y103.248 E4.44744
G1 X38.649 Y103.129 E4.4868
G1 X37.884 Y102.931 E4.52622
G1 X37.144 Y102.657 E4.56559
G1 X36.435 Y102.309 E4.605
G1 X35.764 Y101.891 E4.64444
G1 X35.14 Y101.408 E4.6838
G1 X34.567 Y100.865 E4.72319
G1 X34.052 Y100.266 E4.7626
G1 X33.601 Y99.618 E4.80199
G1 X33.217 Y98.927 E4.84143
G1 X32.905 Y98.202 E4.8808
G1 X32.668 Y97.449 E4.92019
G1 X32.509 Y96.675 E4.95961
G1 X32.428 Y95.89 E4.99898
G1 X32.418 Y75.388 E6.02183
G1 X32.458 Y74.599 E6.06124
G1 X32.577 Y73.819 E6.10061
G1 X32.775 Y73.054 E6.14003
G1 X33.049 Y72.314 E6.1794
G1 X33.397 Y71.605 E6.2188
G1 X33.815 Y70.934 E6.25825
G1 X34.298 Y70.31 E6.29761
G1 X34.841 Y69.737 E6.337
G1 X35.44 Y69.222 E6.37641
G1 X36.088 Y68.771 E6.4158
G1 X36.779 Y68.387 E6.45524
G0 X37.154 Y68.652
G1 X37.869 Y68.371 E6.49356
G1 X38.611 Y68.165 E6.53198
G1 X39.369 Y68.037 E6.57033
G1 X40.218 Y67.988 E6.61276
G1 X60.318 Y67.988 E7.61555
G1 X61.086 Y68.028 E7.65392
G1 X61.846 Y68.147 E7.6923
G1 X62.589 Y68.345 E7.73066
G1 X63.308 Y68.619 E7.76905
G1 X63.994 Y68.966 E7.8074
G1 X64.641 Y69.382 E7.84578
G1 X65.241 Y69.863 E7.88415
G1 X65.788 Y70.404 E7.92253
G1 X66.276 Y70.999 E7.96092
G1 X66.699 Y71.641 E7.99928
G1 X67.054 Y72.324 E8.03768
G1 X67.335 Y73.039 E8.07601
G1 X67.541 Y73.781 E8.11443
G1 X67.669 Y74.539 E8.15278
G1 X67.718 Y75.388 E8.19521
G1 X67.718 Y95.488 E9.198
G1 X67.678 Y96.256 E9.23637
G1 X67.559 Y97.016 E9.27474
G1 X67.361 Y97.759 E9.31311
G1 X67.087 Y98.478 E9.35149
G1 X66.74 Y99.164 E9.38985
G1 X66.324 Y99.811 E9.42822
G1 X65.843 Y100.411 E9.46659
G1 X65.302 Y100.958 E9.50497
G1 X64.707 Y101.446 E9.54336
G1 X64.065 Y101.869 E9.58172
G1 X63.382 Y102.224 E9.62012
G1 X62.667 Y102.505 E9.65845
G1 X61.925 Y102.711 E9.69687
G1 X61.167 Y102.839 E9.73522
G1 X60.318 Y102.888 E9.77765
G1 X40.218 Y102.888 E10.78044
G1 X39.45 Y102.848 E10.81881
G1 X38.69 Y102.729 E10.85719
G1 X37.947 Y102.531 E10.89555
G1 X37.228 Y102.257 E10.93394
G1 X36.542 Y101.91 E10.97229
G1 X35.895 Y101.494 E11.01067
G1 X35.295 Y101.013 E11.04903
G1 X34.748 Y100.472 E11.08742
G1 X34.26 Y99.877 E11.12581
G1 X33.837 Y99.235 E11.16416
G1 X33.482 Y98.552 E11.20257
G1 X33.201 Y97.837 E11.24089
G1 X32.995 Y97.095 E11.27931
G1 X32.867 Y96.337 E11.31767
G1 X32.818 Y95.488 E11.36009
G1 X32.818 Y75.388 E12.36289
G1 X32.858 Y74.62 E12.40125
G1 X32.977 Y73.86 E12.43963
G1 X33.175 Y73.117 E12.47799
G1 X33.449 Y72.398 E12.51638
G1 X33.796 Y71.712 E12.55474
G1 X34.212 Y71.065 E12.59311
G1 X34.693 Y70.465 E12.63148
G1 X35.234 Y69.918 E12.66986
G1 X35.829 Y69.43 E12.70825
G1 X36.471 Y69.007 E12.74661
G1 X37.154 Y68.652 E12.78501
G0 X36.852 Y69.25
G1 X37.526 Y68.926 E12.82232
G1 X38.231 Y68.676 E12.85964
G1 X38.959 Y68.502 E12.89698
G1 X39.701 Y68.407 E12.9343
G1 X40.218 Y68.388 E12.96011
G1 X60.318 Y68.388 E13.96291
G1 X61.065 Y68.428 E14.00023
G1 X61.803 Y68.547 E14.03752
G1 X62.525 Y68.745 E14.07487
G1 X63.221 Y69.018 E14.11217
G1 X63.884 Y69.365 E14.14951
G1 X64.507 Y69.78 E14.18685
G1 X65.081 Y70.259 E14.22415
G1 X65.602 Y70.796 E14.26148
G1 X66.061 Y71.386 E14.29877
G1 X66.456 Y72.022 E14.33612
G1 X66.78 Y72.696 E14.37343
G1 X67.03 Y73.401 E14.41075
G1 X67.204 Y74.129 E14.44809
G1 X67.299 Y74.871 E14.48542
G1 X67.318 Y75.388 E14.51123
G1 X67.318 Y95.488 E15.51402
G1 X67.278 Y96.235 E15.55134
G1 X67.159 Y96.973 E15.58864
G1 X66.961 Y97.695 E15.62599
G1 X66.688 Y98.391 E15.66329
G1 X66.341 Y99.054 E15.70062
G1 X65.926 Y99.677 E15.73796
G1 X65.447 Y100.251 E15.77526
G1 X64.91 Y100.772 E15.81259
G1 X64.32 Y101.231 E15.84989
G1 X63.684 Y101.626 E15.88724
G1 X63.01 Y101.95 E15.92455
G1 X62.305 Y102.2 E15.96186
G1 X61.577 Y102.374 E15.99921
G1 X60.835 Y102.469 E16.03653
G1 X60.318 Y102.488 E16.06234
G1 X40.218 Y102.488 E17.06513
G1 X39.471 Y102.448 E17.10245
G1 X38.733 Y102.329 E17.13975
G1 X38.011 Y102.131 E17.1771
G1 X37.315 Y101.858 E17.2144
G1 X36.652 Y101.511 E17.25173
G1 X36.029 Y101.096 E17.28908
G1 X35.455 Y100.617 E17.32638
G1 X34.934 Y100.08 E17.3637
G1 X34.475 Y99.49 E17.401
G1 X34.08 Y98.854 E17.43835
G1 X33.756 Y98.18 E17.47566
G1 X33.506 Y97.475 E17.51298
G1 X33.332 Y96.747 E17.55032
G1 X33.237 Y96.005 E17.58764
G1 X33.218 Y95.488 E17.61345
G1 X33.218 Y75.388 E18.61625
G1 X33.258 Y74.641 E18.65357
G1 X33.377 Y73.903 E18.69086
G1 X33.575 Y73.181 E18.72821
G1 X33.848 Y72.485 E18.76551
G1 X34.195 Y71.822 E18.80285
G1 X34.61 Y71.199 E18.84019
G1 X35.089 Y70.625 E18.87749
G1 X35.626 Y70.104 E18.91482
G1 X36.216 Y69.645 E18.95211
G1 X36.852 Y69.25 E18.98946
G0 X37.231 Y69.503
G1 X37.896 Y69.21 E19.02572
G1 X38.589 Y68.992 E19.06196
G1 X39.301 Y68.852 E19.09816
G1 X40.218 Y68.788 E19.14402
G1 X60.318 Y68.788 E20.14682
G1 X61.043 Y68.828 E20.18304
G1 X61.76 Y68.947 E20.2193
G1 X62.459 Y69.145 E20.25555
G1 X63.132 Y69.418 E20.29178
G1 X63.771 Y69.763 E20.32801
G1 X64.368 Y70.177 E20.36426
G1 X64.916 Y70.653 E20.40047
G1 X65.409 Y71.187 E20.43673
G1 X65.839 Y71.772 E20.47295
G1 X66.203 Y72.401 E20.50921
G1 X66.496 Y73.066 E20.54546
G1 X66.714 Y73.759 E20.58171
G1 X66.854 Y74.471 E20.61791
G1 X66.918 Y75.388 E20.66377
G1 X66.918 Y95.488 E21.66656
G1 X66.878 Y96.213 E21.70279
G1 X66.759 Y96.93 E21.73905
G1 X66.561 Y97.629 E21.77529
G1 X66.288 Y98.302 E21.81153
G1 X65.943 Y98.941 E21.84776
G1 X65.529 Y99.538 E21.884
G1 X65.053 Y100.086 E21.92022
G1 X64.519 Y100.579 E21.95648
G1 X63.934 Y101.009 E21.9927
G1 X63.305 Y101.373 E22.02895
G1 X62.64 Y101.666 E22.06521
G1 X61.947 Y101.884 E22.10145
G1 X61.235 Y102.024 E22.13765
G1 X60.318 Y102.088 E22.18352
G1 X40.218 Y102.088 E23.18631
G1 X39.493 Y102.048 E23.22253
G1 X38.776 Y101.929 E23.25879
G1 X38.077 Y101.731 E23.29504
G1 X37.404 Y101.458 E23.33127
G1 X36.765 Y101.113 E23.3675
G1 X36.168 Y100.699 E23.40375
G1 X35.62 Y100.223 E23.43996
G1 X35.127 Y99.689 E23.47622
G1 X34.697 Y99.104 E23.51244
G1 X34.333 Y98.475 E23.5487
G1 X34.04 Y97.81 E23.58495
G1 X33.822 Y97.117 E23.6212
G1 X33.682 Y96.405 E23.6574
G1 X33.618 Y95.488 E23.70326
G1 X33.618 Y75.388 E24.70605
G1 X33.658 Y74.663 E24.74228
G1 X33.777 Y73.946 E24.77854
G1 X33.975 Y73.247 E24.81479
G1 X34.248 Y72.574 E24.85102
G1 X34.593 Y71.935 E24.88725
G1 X35.007 Y71.338 E24.92349
G1 X35.483 Y70.79 E24.95971
G1 X36.017 Y70.297 E24.99597
G1 X36.602 Y69.867 E25.03219
G1 X37.231 Y69.503 E25.06844
G0 X37.607 Y69.765
G1 X38.261 Y69.505 E25.10356
G1 X38.941 Y69.321 E25.1387
G1 X39.637 Y69.215 E25.17383
G1 X40.218 Y69.188 E25.20284
G1 X60.318 Y69.188 E26.20564
G1 X61.021 Y69.228 E26.24077
G1 X61.715 Y69.347 E26.2759
G1 X62.39 Y69.545 E26.31099
G1 X63.039 Y69.817 E26.3461
G1 X63.653 Y70.162 E26.38123
G1 X64.224 Y70.573 E26.41633
G1 X64.745 Y71.047 E26.45147
G1 X65.209 Y71.577 E26.48662
G1 X65.609 Y72.156 E26.52173
G1 X65.941 Y72.777 E26.55686
G1 X66.201 Y73.431 E26.59197
G1 X66.385 Y74.111 E26.62712
G1 X66.491 Y74.807 E26.66224
G1 X66.518 Y75.388 E26.69126
G1 X66.518 Y95.488 E27.69405
G1 X66.478 Y96.191 E27.72918
G1 X66.359 Y96.885 E27.76431
G1 X66.161 Y97.56 E27.7994
G1 X65.889 Y98.209 E27.83451
G1 X65.544 Y98.823 E27.86965
G1 X65.133 Y99.394 E27.90475
G1 X64.659 Y99.915 E27.93989
G1 X64.129 Y100.379 E27.97503
G1 X63.55 Y100.779 E28.01014
G1 X62.929 Y101.111 E28.04527
G1 X62.275 Y101.371 E28.08039
G1 X61.595 Y101.555 E28.11553
G1 X60.899 Y101.661 E28.15065
G1 X60.318 Y101.688 E28.17967
G1 X40.218 Y101.688 E29.18246
G1 X39.515 Y101.648 E29.21759
G1 X38.821 Y101.529 E29.25272
G1 X38.146 Y101.331 E29.28782
G1 X37.497 Y101.059 E29.32293
G1 X36.883 Y100.714 E29.35806
G1 X36.312 Y100.303 E29.39316
G1 X35.791 Y99.829 E29.4283
G1 X35.327 Y99.299 E29.46345
G1 X34.927 Y98.72 E29.49856
G1 X34.595 Y98.099 E29.53369
G1 X34.335 Y97.445 E29.5688
G1 X34.151 Y96.765 E29.60394
G1 X34.045 Y96.069 E29.63907
G1 X34.018 Y95.488 E29.66809
G1 X34.018 Y75.388 E30.67088
G1 X34.058 Y74.685 E30.70601
G1 X34.177 Y73.991 E30.74114
G1 X34.375 Y73.316 E30.77623
G1 X34.647 Y72.667 E30.81134
G1 X34.992 Y72.053 E30.84648
G1 X35.403 Y71.482 E30.88158
G1 X35.877 Y70.961 E30.91672
G1 X36.407 Y70.497 E30.95186
G1 X36.986 Y70.097 E30.98697
G1 X37.607 Y69.765 E31.0221
G0 X37.368 Y70.336
G1 X37.98 Y70.037 E31.05608
G1 X38.622 Y69.812 E31.09002
G1 X39.287 Y69.663 E31.12402
G1 X40.218 Y69.588 E31.17062
G1 X60.318 Y69.588 E32.17341
G1 X60.998 Y69.628 E32.2074
G1 X61.668 Y69.747 E32.24135
G1 X62.32 Y69.944 E32.27533
G1 X62.944 Y70.216 E32.30929
G1 X63.532 Y70.56 E32.34328
G1 X64.076 Y70.97 E32.37726
G1 X64.567 Y71.441 E32.41121
G1 X65.001 Y71.966 E32.44519
G1 X65.37 Y72.538 E32.47915
G1 X65.669 Y73.15 E32.51313
G1 X65.894 Y73.792 E32.54707
G1 X66.043 Y74.457 E32.58107
G1 X66.118 Y75.388 E32.62767
G1 X66.118 Y95.488 E33.63046
G1 X66.078 Y96.168 E33.66444
G1 X65.959 Y96.838 E33.69839
G1 X65.762 Y97.49 E33.73238
G1 X65.49 Y98.114 E33.76634
G1 X65.146 Y98.702 E33.80032
G1 X64.736 Y99.246 E33.83431
G1 X64.265 Y99.737 E33.86825
G1 X63.74 Y100.171 E33.90224
G1 X63.168 Y100.54 E33.9362
G1 X62.556 Y100.839 E33.97018
G1 X61.914 Y101.064 E34.00412
G1 X61.249 Y101.213 E34.03812
G1 X60.318 Y101.288 E34.08472
G1 X40.218 Y101.288 E35.08751
G1 X39.538 Y101.248 E35.12149
G1 X38.868 Y101.129 E35.15544
G1 X38.216 Y100.932 E35.18942
G1 X37.592 Y100.66 E35.22338
G1 X37.004 Y100.316 E35.25737
G1 X36.46 Y99.906 E35.29136
G1 X35.969 Y99.435 E35.3253
G1 X35.535 Y98.91 E35.35928
G1 X35.166 Y98.338 E35.39324
G1 X34.867 Y97.726 E35.42723
G1 X34.642 Y97.084 E35.46116
G1 X34.493 Y96.419 E35.49516
G1 X34.418 Y95.488 E35.54176
G1 X34.418 Y75.388 E36.54456
G1 X34.458 Y74.708 E36.57854
G1 X34.577 Y74.038 E36.61249
G1 X34.774 Y73.386 E36.64647
G1 X35.046 Y72.762 E36.68043
G1 X35.39 Y72.174 E36.71442
G1 X35.8 Y71.63 E36.7484
G1 X36.271 Y71.139 E36.78235
G1 X36.796 Y70.705 E36.81633
G1 X37.368 Y70.336 E36.85029
G0 X37.747 Y70.586
G1 X38.349 Y70.322 E36.88309
G1 X38.978 Y70.132 E36.91587
G1 X39.625 Y70.021 E36.94862
G1 X40.218 Y69.988 E36.97825
G1 X60.318 Y69.988 E37.98104
G1 X60.974 Y70.028 E38.01383
G1 X61.62 Y70.147 E38.0466
G1 X62.247 Y70.344 E38.07939
G1 X62.845 Y70.616 E38.11217
G1 X63.406 Y70.958 E38.14494
G1 X63.921 Y71.366 E38.17772
G1 X64.383 Y71.833 E38.2105
G1 X64.784 Y72.353 E38.24326
G1 X65.12 Y72.917 E38.27601
G1 X65.384 Y73.519 E38.30881
G1 X65.574 Y74.148 E38.34159
G1 X65.685 Y74.795 E38.37434
G1 X65.718 Y75.388 E38.40397
G1 X65.718 Y95.488 E39.40676
G1 X65.678 Y96.144 E39.43955
G1 X65.559 Y96.79 E39.47232
G1 X65.362 Y97.417 E39.50511
G1 X65.09 Y98.015 E39.53789
G1 X64.748 Y98.576 E39.57067
G1 X64.34 Y99.091 E39.60345
G1 X63.873 Y99.553 E39.63622
G1 X63.353 Y99.954 E39.66898
G1 X62.789 Y100.29 E39.70173
G1 X62.187 Y100.554 E39.73453
G1 X61.558 Y100.744 E39.76731
G1 X60.911 Y100.855 E39.80006
G1 X60.318 Y100.888 E39.82969
G1 X40.218 Y100.888 E40.83248
G1 X39.562 Y100.848 E40.86527
G1 X38.916 Y100.729 E40.89804
G1 X38.289 Y100.532 E40.93083
G1 X37.691 Y100.26 E40.96361
G1 X37.13 Y99.918 E40.99639
G1 X36.615 Y99.51 E41.02917
G1 X36.153 Y99.043 E41.06194
G1 X35.752 Y98.523 E41.0947
G1 X35.416 Y97.959 E41.12745
G1 X35.152 Y97.357 E41.16025
G1 X34.962 Y96.728 E41.19303
G1 X34.851 Y96.081 E41.22578
G1 X34.818 Y95.488 E41.25541
G1 X34.818 Y75.388 E42.2582
G1 X34.858 Y74.732 E42.29099
G1 X34.977 Y74.086 E42.32376
G1 X35.174 Y73.459 E42.35655
G1 X35.446 Y72.861 E42.38933
G1 X35.788 Y72.3 E42.42211
G1 X36.196 Y71.785 E42.45489
G1 X36.663 Y71.323 E42.48766
G1 X37.183 Y70.922 E42.52042
G1 X37.747 Y70.586 E42.55317
G0 X38.124 Y70.848
G1 X38.713 Y70.62 E42.58468
G1 X39.327 Y70.468 E42.61624
G1 X40.218 Y70.388 E42.66087
G1 X60.318 Y70.388 E43.66367
G1 X60.949 Y70.428 E43.69521
G1 X61.57 Y70.547 E43.72676
G1 X62.17 Y70.744 E43.75826
G1 X62.742 Y71.015 E43.78984
G1 X63.274 Y71.355 E43.82134
G1 X63.759 Y71.761 E43.85289
G1 X64.189 Y72.224 E43.88442
G1 X64.558 Y72.738 E43.91599
G1 X64.858 Y73.294 E43.94751
G1 X65.086 Y73.883 E43.97902
G1 X65.238 Y74.497 E44.01057
G1 X65.318 Y75.388 E44.0552
G1 X65.318 Y95.488 E45.058
G1 X65.278 Y96.119 E45.08954
G1 X65.159 Y96.74 E45.12109
G1 X64.962 Y97.34 E45.15259
G1 X64.691 Y97.912 E45.18417
G1 X64.351 Y98.444 E45.21567
G1 X63.945 Y98.929 E45.24723
G1 X63.482 Y99.359 E45.27875
G1 X62.968 Y99.728 E45.31032
G1 X62.412 Y100.028 E45.34184
G1 X61.823 Y100.256 E45.37335
G1 X61.209 Y100.408 E45.4049
G1 X60.318 Y100.488 E45.44953
G1 X40.218 Y100.488 E46.45233
G1 X39.587 Y100.448 E46.48387
G1 X38.966 Y100.329 E46.51542
G1 X38.366 Y100.132 E46.54692
G1 X37.794 Y99.861 E46.5785
G1 X37.262 Y99.521 E46.61
G1 X36.777 Y99.115 E46.64156
G1 X36.347 Y98.652 E46.67308
G1 X35.978 Y98.138 E46.70465
G1 X35.678 Y97.582 E46.73617
G1 X35.45 Y96.993 E46.76768
G1 X35.298 Y96.379 E46.79923
G1 X35.218 Y95.488 E46.84387
G1 X35.218 Y75.388 E47.84666
G1 X35.258 Y74.757 E47.8782
G1 X35.377 Y74.136 E47.90975
G1 X35.574 Y73.536 E47.94125
G1 X35.845 Y72.964 E47.97283
G1 X36.185 Y72.432 E48.00433
G1 X36.591 Y71.947 E48.03589
G1 X37.054 Y71.517 E48.06741
G1 X37.568 Y71.148 E48.09898
G1 X38.124 Y70.848 E48.1305
G0 X37.95 Y71.386
G1 X38.496 Y71.122 E48.16076
G1 X39.072 Y70.933 E48.191
G1 X39.668 Y70.821 E48.22125
G1 X40.218 Y70.788 E48.24874
G1 X60.318 Y70.788 E49.25154
G1 X60.923 Y70.828 E49.28179
G1 X61.517 Y70.947 E49.31201
G1 X62.091 Y71.143 E49.34227
G1 X62.634 Y71.414 E49.37255
G1 X63.137 Y71.753 E49.40281
G1 X63.59 Y72.155 E49.43303
G1 X63.987 Y72.613 E49.46326
G1 X64.32 Y73.12 E49.49353
G1 X64.584 Y73.666 E49.52378
G1 X64.773 Y74.242 E49.55403
G1 X64.885 Y74.838 E49.58428
G1 X64.918 Y75.388 E49.61177
G1 X64.918 Y95.488 E50.61457
G1 X64.878 Y96.093 E50.64481
G1 X64.759 Y96.687 E50.67504
G1 X64.563 Y97.261 E50.7053
G1 X64.292 Y97.804 E50.73558
G1 X63.953 Y98.307 E50.76584
G1 X63.551 Y98.76 E50.79605
G1 X63.093 Y99.157 E50.82629
G1 X62.586 Y99.49 E50.85656
G1 X62.04 Y99.754 E50.88681
G1 X61.464 Y99.943 E50.91706
G1 X60.868 Y100.055 E50.94731
G1 X60.318 Y100.088 E50.9748
