;FLAVOR:Marlin
;TIME:2114
;Filament used: 1.41434m
;Layer height: 0.1
;MINX:46.875
;MINY:120.958
;MINZ:0.3
;MAXX:82.575
;MAXY:156.658
;MAXZ:20.1
;Generated with Cura_SteamEngine 4.6.1
M104 S200
M105
M109 S200
M82 ;absolute extrusion mode
G21 ;metric values
G90 ;absolute positioning
M82 ;set extruder to absolute mode
G28 X0.0 Y0.0 Z0.0 ;Home
;G1 Z15.0 F9000 ;move the platform down 15mm
G92 X0 Y0 Z0 E0 ;zero the extruded length
G1 F200 E6 ;extrude 6 mm of feed stock
G92 E0 ;zero the extruded length again
G1 F9000
;Put printing message on LCD screen
;M117 Printing...
G1 F200 E3
G92 E0
G92 E0
G92 E0
G1 F1500 E-6.5
;LAYER_COUNT:199
;LAYER:0
M107
G0 F3600 X51.961 Y121.445 Z0.3
;TYPE:SKIRT
G1 F1500 E0
G1 F1800 X52.714 Y121.208 E0.03938
G1 X53.488 Y121.049 E0.07881
G1 X54.273 Y120.968 E0.11818
G1 X74.775 Y120.958 E1.14103
G1 X75.564 Y120.998 E1.18044
G1 X76.344 Y121.117 E1.2198
G1 X77.109 Y121.315 E1.25923
G1 X77.849 Y121.589 E1.2986
G1 X78.558 Y121.937 E1.338
G1 X79.229 Y122.355 E1.37744
G1 X79.853 Y122.838 E1.41681
G1 X80.426 Y123.381 E1.45619
G1 X80.941 Y123.98 E1.4956
G1 X81.392 Y124.628 E1.53499
G1 X81.776 Y125.319 E1.57443
G1 X82.088 Y126.044 E1.61381
G1 X82.325 Y126.797 E1.65319
G1 X82.484 Y127.571 E1.69261
G1 X82.565 Y128.356 E1.73199
G1 X82.575 Y148.858 E2.75484
G1 X82.535 Y149.647 E2.79425
G1 X82.416 Y150.427 E2.83361
G1 X82.218 Y151.192 E2.87304
G1 X81.944 Y151.932 E2.91241
G1 X81.596 Y152.641 E2.95181
G1 X81.178 Y153.312 E2.99125
G1 X80.695 Y153.936 E3.03062
G1 X80.152 Y154.509 E3.07
G1 X79.553 Y155.024 E3.10941
G1 X78.905 Y155.475 E3.1488
G1 X78.214 Y155.859 E3.18824
G1 X77.489 Y156.171 E3.22762
G1 X76.736 Y156.408 E3.267
G1 X75.962 Y156.567 E3.30642
G1 X75.177 Y156.648 E3.3458
G1 X54.675 Y156.658 E4.36864
G1 X53.886 Y156.618 E4.40806
G1 X53.106 Y156.499 E4.44742
G1 X52.341 Y156.301 E4.48685
G1 X51.601 Y156.027 E4.52621
G1 X50.892 Y155.679 E4.56562
G1 X50.221 Y155.261 E4.60506
G1 X49.597 Y154.778 E4.64443
G1 X49.024 Y154.235 E4.68381
G1 X48.509 Y153.636 E4.72322
G1 X48.058 Y152.988 E4.76261
G1 X47.674 Y152.297 E4.80205
G1 X47.362 Y151.572 E4.84143
G1 X47.125 Y150.819 E4.88081
G1 X46.966 Y150.045 E4.92023
G1 X46.885 Y149.26 E4.9596
G1 X46.875 Y128.758 E5.98245
G1 X46.915 Y127.969 E6.02187
G1 X47.034 Y127.189 E6.06123
G1 X47.232 Y126.424 E6.10066
G1 X47.506 Y125.684 E6.14002
G1 X47.854 Y124.975 E6.17943
G1 X48.272 Y124.304 E6.21887
G1 X48.755 Y123.68 E6.25824
G1 X49.298 Y123.107 E6.29762
G1 X49.897 Y122.592 E6.33703
G1 X50.545 Y122.141 E6.37642
G1 X51.236 Y121.757 E6.41586
G1 X51.961 Y121.445 E6.45524
G0 F3600 X52.326 Y121.741
G1 F1800 X53.068 Y121.535 E6.49365
G1 X53.826 Y121.407 E6.53201
G1 X54.675 Y121.358 E6.57443
G1 X74.775 Y121.358 E7.57723
G1 X75.543 Y121.398 E7.61559
G1 X76.303 Y121.517 E7.65397
G1 X77.046 Y121.715 E7.69234
G1 X77.765 Y121.989 E7.73072
G1 X78.451 Y122.336 E7.76908
G1 X79.098 Y122.752 E7.80745
G1 X79.698 Y123.233 E7.84582
G1 X80.245 Y123.774 E7.8842
G1 X80.733 Y124.369 E7.92259
G1 X81.156 Y125.011 E7.96095
G1 X81.511 Y125.694 E7.99935
G1 X81.792 Y126.409 E8.03768
G1 X81.998 Y127.151 E8.0761
G1 X82.126 Y127.909 E8.11445
G1 X82.175 Y128.758 E8.15688
G1 X82.175 Y148.858 E9.15967
G1 X82.135 Y149.626 E9.19804
G1 X82.016 Y150.386 E9.23642
G1 X81.818 Y151.129 E9.27478
G1 X81.544 Y151.848 E9.31317
G1 X81.197 Y152.534 E9.35152
G1 X80.781 Y153.181 E9.3899
G1 X80.3 Y153.781 E9.42826
G1 X79.759 Y154.328 E9.46664
G1 X79.164 Y154.816 E9.50504
G1 X78.522 Y155.239 E9.54339
G1 X77.839 Y155.594 E9.5818
G1 X77.124 Y155.875 E9.62012
G1 X76.382 Y156.081 E9.65854
G1 X75.624 Y156.209 E9.69689
G1 X74.775 Y156.258 E9.73932
G1 X54.675 Y156.258 E10.74211
G1 X53.907 Y156.218 E10.78048
G1 X53.147 Y156.099 E10.81886
G1 X52.404 Y155.901 E10.85722
G1 X51.685 Y155.627 E10.89561
G1 X50.999 Y155.28 E10.93396
G1 X50.352 Y154.864 E10.97234
G1 X49.752 Y154.383 E11.01071
G1 X49.205 Y153.842 E11.04909
G1 X48.717 Y153.247 E11.08748
G1 X48.294 Y152.605 E11.12584
G1 X47.939 Y151.922 E11.16424
G1 X47.658 Y151.207 E11.20257
G1 X47.452 Y150.465 E11.24099
G1 X47.324 Y149.707 E11.27934
G1 X47.275 Y148.858 E11.32177
G1 X47.275 Y128.758 E12.32456
G1 X47.315 Y127.99 E12.36293
G1 X47.434 Y127.23 E12.4013
G1 X47.632 Y126.487 E12.43967
G1 X47.906 Y125.768 E12.47805
G1 X48.253 Y125.082 E12.51641
G1 X48.669 Y124.435 E12.55478
G1 X49.15 Y123.835 E12.59315
G1 X49.691 Y123.288 E12.63153
G1 X50.286 Y122.8 E12.66992
G1 X50.928 Y122.377 E12.70828
G1 X51.611 Y122.022 E12.74668
G1 X52.326 Y121.741 E12.78501
G0 F3600 X51.983 Y122.296
G1 F1800 X52.688 Y122.046 E12.82233
G1 X53.416 Y121.872 E12.85967
G1 X54.158 Y121.777 E12.89699
G1 X54.675 Y121.758 E12.9228
G1 X74.775 Y121.758 E13.9256
G1 X75.522 Y121.798 E13.96292
G1 X76.26 Y121.917 E14.00021
G1 X76.982 Y122.115 E14.03756
G1 X77.678 Y122.388 E14.07486
G1 X78.341 Y122.735 E14.1122
G1 X78.964 Y123.15 E14.14954
G1 X79.538 Y123.629 E14.18684
G1 X80.059 Y124.166 E14.22417
G1 X80.518 Y124.756 E14.26146
G1 X80.913 Y125.392 E14.29881
G1 X81.237 Y126.066 E14.33612
G1 X81.487 Y126.771 E14.37344
G1 X81.661 Y127.499 E14.41079
G1 X81.756 Y128.241 E14.44811
G1 X81.775 Y128.758 E14.47392
G1 X81.775 Y148.858 E15.47671
G1 X81.735 Y149.605 E15.51403
G1 X81.616 Y150.343 E15.55133
G1 X81.418 Y151.065 E15.58868
G1 X81.145 Y151.761 E15.62598
G1 X80.798 Y152.424 E15.66331
G1 X80.383 Y153.047 E15.70066
G1 X79.904 Y153.621 E15.73795
G1 X79.367 Y154.142 E15.77528
G1 X78.777 Y154.601 E15.81258
G1 X78.141 Y154.996 E15.84993
G1 X77.467 Y155.32 E15.88724
G1 X76.762 Y155.57 E15.92456
G1 X76.034 Y155.744 E15.9619
G1 X75.292 Y155.839 E15.99922
G1 X74.775 Y155.858 E16.02503
G1 X54.675 Y155.858 E17.02782
G1 X53.928 Y155.818 E17.06514
G1 X53.19 Y155.699 E17.10244
G1 X52.468 Y155.501 E17.13979
G1 X51.772 Y155.228 E17.17709
G1 X51.109 Y154.881 E17.21442
G1 X50.486 Y154.466 E17.25177
G1 X49.912 Y153.987 E17.28907
G1 X49.391 Y153.45 E17.3264
G1 X48.932 Y152.86 E17.36369
G1 X48.537 Y152.224 E17.40104
G1 X48.213 Y151.55 E17.43835
G1 X47.963 Y150.845 E17.47567
G1 X47.789 Y150.117 E17.51301
G1 X47.694 Y149.375 E17.55033
G1 X47.675 Y148.858 E17.57614
G1 X47.675 Y128.758 E18.57894
G1 X47.715 Y128.011 E18.61626
G1 X47.834 Y127.273 E18.65355
G1 X48.032 Y126.551 E18.6909
G1 X48.305 Y125.855 E18.7282
G1 X48.652 Y125.192 E18.76554
G1 X49.067 Y124.569 E18.80288
G1 X49.546 Y123.995 E18.84018
G1 X50.083 Y123.474 E18.87751
G1 X50.673 Y123.015 E18.9148
G1 X51.309 Y122.62 E18.95215
G1 X51.983 Y122.296 E18.98946
G0 F3600 X52.353 Y122.58
G1 F1800 X53.046 Y122.362 E19.02571
G1 X53.758 Y122.222 E19.06191
G1 X54.675 Y122.158 E19.10777
G1 X74.775 Y122.158 E20.11056
G1 X75.5 Y122.198 E20.14679
G1 X76.217 Y122.317 E20.18305
G1 X76.916 Y122.515 E20.21929
G1 X77.589 Y122.788 E20.25553
G1 X78.228 Y123.133 E20.29176
G1 X78.825 Y123.547 E20.328
G1 X79.373 Y124.023 E20.36422
G1 X79.866 Y124.557 E20.40048
G1 X80.296 Y125.142 E20.4367
G1 X80.66 Y125.771 E20.47295
G1 X80.953 Y126.436 E20.50921
G1 X81.171 Y127.129 E20.54545
G1 X81.311 Y127.841 E20.58165
G1 X81.375 Y128.758 E20.62752
G1 X81.375 Y148.858 E21.63031
G1 X81.335 Y149.583 E21.66653
G1 X81.216 Y150.3 E21.70279
G1 X81.018 Y150.999 E21.73904
G1 X80.745 Y151.672 E21.77527
G1 X80.4 Y152.311 E21.8115
G1 X79.986 Y152.908 E21.84775
G1 X79.51 Y153.456 E21.88396
G1 X78.976 Y153.949 E21.92022
G1 X78.391 Y154.379 E21.95644
G1 X77.762 Y154.743 E21.9927
G1 X77.097 Y155.036 E22.02895
G1 X76.404 Y155.254 E22.0652
G1 X75.692 Y155.394 E22.1014
G1 X74.775 Y155.458 E22.14726
G1 X54.675 Y155.458 E23.15005
G1 X53.95 Y155.418 E23.18628
G1 X53.233 Y155.299 E23.22254
G1 X52.534 Y155.101 E23.25879
G1 X51.861 Y154.828 E23.29502
G1 X51.222 Y154.483 E23.33125
G1 X50.625 Y154.069 E23.36749
G1 X50.077 Y153.593 E23.40371
G1 X49.584 Y153.059 E23.43997
G1 X49.154 Y152.474 E23.47619
G1 X48.79 Y151.845 E23.51244
G1 X48.497 Y151.18 E23.5487
G1 X48.279 Y150.487 E23.58494
G1 X48.139 Y149.775 E23.62115
G1 X48.075 Y148.858 E23.66701
G1 X48.075 Y128.758 E24.6698
G1 X48.115 Y128.033 E24.70602
G1 X48.234 Y127.316 E24.74229
G1 X48.432 Y126.617 E24.77853
G1 X48.705 Y125.944 E24.81476
G1 X49.05 Y125.305 E24.85099
G1 X49.464 Y124.708 E24.88724
G1 X49.94 Y124.16 E24.92345
G1 X50.474 Y123.667 E24.95971
G1 X51.059 Y123.237 E24.99593
G1 X51.688 Y122.873 E25.03219
G1 X52.353 Y122.58 E25.06844
G0 F3600 X52.718 Y122.875
G1 F1800 X53.398 Y122.691 E25.10359
G1 X54.094 Y122.585 E25.13871
G1 X54.675 Y122.558 E25.16773
G1 X74.775 Y122.558 E26.17052
G1 X75.478 Y122.598 E26.20565
G1 X76.172 Y122.717 E26.24078
G1 X76.847 Y122.915 E26.27588
G1 X77.496 Y123.187 E26.31099
G1 X78.11 Y123.532 E26.34612
G1 X78.681 Y123.943 E26.38122
G1 X79.202 Y124.417 E26.41636
G1 X79.666 Y124.947 E26.45151
G1 X80.066 Y125.526 E26.48662
G1 X80.398 Y126.147 E26.52175
G1 X80.658 Y126.801 E26.55686
G1 X80.842 Y127.481 E26.592
G1 X80.948 Y128.177 E26.62713
G1 X80.975 Y128.758 E26.65615
G1 X80.975 Y148.858 E27.65894
G1 X80.935 Y149.561 E27.69407
G1 X80.816 Y150.255 E27.7292
G1 X80.618 Y150.93 E27.76429
G1 X80.346 Y151.579 E27.7994
G1 X80.001 Y152.193 E27.83454
G1 X79.59 Y152.764 E27.86964
G1 X79.116 Y153.285 E27.90478
G1 X78.586 Y153.749 E27.93992
G1 X78.007 Y154.149 E27.97503
G1 X77.386 Y154.481 E28.01016
G1 X76.732 Y154.741 E28.04527
G1 X76.052 Y154.925 E28.08042
G1 X75.356 Y155.031 E28.11554
G1 X74.775 Y155.058 E28.14456
G1 X54.675 Y155.058 E29.14735
G1 X53.972 Y155.018 E29.18248
G1 X53.278 Y154.899 E29.21761
G1 X52.603 Y154.701 E29.25271
G1 X51.954 Y154.429 E29.28781
G1 X51.34 Y154.084 E29.32295
G1 X50.769 Y153.673 E29.35805
G1 X50.248 Y153.199 E29.39319
G1 X49.784 Y152.669 E29.42833
G1 X49.384 Y152.09 E29.46344
G1 X49.052 Y151.469 E29.49857
G1 X48.792 Y150.815 E29.53369
G1 X48.608 Y150.135 E29.56883
G1 X48.502 Y149.439 E29.60396
G1 X48.475 Y148.858 E29.63297
G1 X48.475 Y128.758 E30.63577
G1 X48.515 Y128.055 E30.6709
G1 X48.634 Y127.361 E30.70603
G1 X48.832 Y126.686 E30.74112
G1 X49.104 Y126.037 E30.77623
G1 X49.449 Y125.423 E30.81136
G1 X49.86 Y124.852 E30.84646
G1 X50.334 Y124.331 E30.8816
G1 X50.864 Y123.867 E30.91675
G1 X51.443 Y123.467 E30.95186
G1 X52.064 Y123.135 E30.98699
G1 X52.718 Y122.875 E31.0221
G0 F3600 X52.437 Y123.407
G1 F1800 X53.079 Y123.182 E31.05604
G1 X53.744 Y123.033 E31.09004
G1 X54.675 Y122.958 E31.13664
G1 X74.775 Y122.958 E32.13943
G1 X75.455 Y122.998 E32.17342
G1 X76.125 Y123.117 E32.20737
G1 X76.777 Y123.314 E32.24135
G1 X77.401 Y123.586 E32.27531
G1 X77.989 Y123.93 E32.30929
G1 X78.533 Y124.34 E32.34328
G1 X79.024 Y124.811 E32.37722
G1 X79.458 Y125.336 E32.41121
G1 X79.827 Y125.908 E32.44517
G1 X80.126 Y126.52 E32.47915
G1 X80.351 Y127.162 E32.51309
G1 X80.5 Y127.827 E32.54709
G1 X80.575 Y128.758 E32.59369
G1 X80.575 Y148.858 E33.59648
G1 X80.535 Y149.538 E33.63046
G1 X80.416 Y150.208 E33.66441
G1 X80.219 Y150.86 E33.69839
G1 X79.947 Y151.484 E33.73235
G1 X79.603 Y152.072 E33.76634
G1 X79.193 Y152.616 E33.80033
G1 X78.722 Y153.107 E33.83427
G1 X78.197 Y153.541 E33.86825
G1 X77.625 Y153.91 E33.90221
G1 X77.013 Y154.209 E33.9362
G1 X76.371 Y154.434 E33.97014
G1 X75.706 Y154.583 E34.00413
G1 X74.775 Y154.658 E34.05073
G1 X54.675 Y154.658 E35.05353
G1 X53.995 Y154.618 E35.08751
G1 X53.325 Y154.499 E35.12146
G1 X52.673 Y154.302 E35.15544
G1 X52.049 Y154.03 E35.1894
G1 X51.461 Y153.686 E35.22339
G1 X50.917 Y153.276 E35.25737
G1 X50.426 Y152.805 E35.29132
G1 X49.992 Y152.28 E35.3253
G1 X49.623 Y151.708 E35.35926
G1 X49.324 Y151.096 E35.39324
G1 X49.099 Y150.454 E35.42718
G1 X48.95 Y149.789 E35.46118
G1 X48.875 Y148.858 E35.50778
G1 X48.875 Y128.758 E36.51057
G1 X48.915 Y128.078 E36.54456
G1 X49.034 Y127.408 E36.57851
G1 X49.231 Y126.756 E36.61249
G1 X49.503 Y126.132 E36.64645
G1 X49.847 Y125.544 E36.68044
G1 X50.257 Y125 E36.71442
G1 X50.728 Y124.509 E36.74837
G1 X51.253 Y124.075 E36.78235
G1 X51.825 Y123.706 E36.81631
G1 X52.437 Y123.407 E36.85029
G0 F3600 X52.806 Y123.692
G1 F1800 X53.435 Y123.502 E36.88307
G1 X54.082 Y123.391 E36.91582
G1 X54.675 Y123.358 E36.94545
G1 X74.775 Y123.358 E37.94825
G1 X75.431 Y123.398 E37.98103
G1 X76.077 Y123.517 E38.01381
G1 X76.704 Y123.714 E38.04659
G1 X77.302 Y123.986 E38.07937
G1 X77.863 Y124.328 E38.11215
G1 X78.378 Y124.736 E38.14493
G1 X78.84 Y125.203 E38.1777
G1 X79.241 Y125.723 E38.21046
G1 X79.577 Y126.287 E38.24322
G1 X79.841 Y126.889 E38.27601
G1 X80.031 Y127.518 E38.30879
G1 X80.142 Y128.165 E38.34154
G1 X80.175 Y128.758 E38.37117
G1 X80.175 Y148.858 E39.37397
G1 X80.135 Y149.514 E39.40676
G1 X80.016 Y150.16 E39.43953
G1 X79.819 Y150.787 E39.47232
G1 X79.547 Y151.385 E39.50509
G1 X79.205 Y151.946 E39.53787
G1 X78.797 Y152.461 E39.57065
G1 X78.33 Y152.923 E39.60342
G1 X77.81 Y153.324 E39.63618
G1 X77.246 Y153.66 E39.66894
G1 X76.644 Y153.924 E39.70173
G1 X76.015 Y154.114 E39.73451
G1 X75.368 Y154.225 E39.76726
G1 X74.775 Y154.258 E39.79689
G1 X54.675 Y154.258 E40.79969
G1 X54.019 Y154.218 E40.83248
G1 X53.373 Y154.099 E40.86525
G1 X52.746 Y153.902 E40.89804
G1 X52.148 Y153.63 E40.93081
G1 X51.587 Y153.288 E40.96359
G1 X51.072 Y152.88 E40.99637
G1 X50.61 Y152.413 E41.02914
G1 X50.209 Y151.893 E41.06191
G1 X49.873 Y151.329 E41.09466
G1 X49.609 Y150.727 E41.12745
G1 X49.419 Y150.098 E41.16023
G1 X49.308 Y149.451 E41.19299
G1 X49.275 Y148.858 E41.22262
G1 X49.275 Y128.758 E42.22541
G1 X49.315 Y128.102 E42.2582
G1 X49.434 Y127.456 E42.29097
G1 X49.631 Y126.829 E42.32376
G1 X49.903 Y126.231 E42.35653
G1 X50.245 Y125.67 E42.38931
G1 X50.653 Y125.155 E42.42209
G1 X51.12 Y124.693 E42.45487
G1 X51.64 Y124.292 E42.48763
G1 X52.204 Y123.956 E42.52038
G1 X52.806 Y123.692 E42.55317
G0 F3600 X53.17 Y123.99
G1 F1800 X53.784 Y123.838 E42.58473
G1 X54.675 Y123.758 E42.62936
G1 X74.775 Y123.758 E43.63216
G1 X75.406 Y123.798 E43.6637
G1 X76.027 Y123.917 E43.69524
G1 X76.627 Y124.114 E43.72675
G1 X77.199 Y124.385 E43.75833
G1 X77.731 Y124.725 E43.78983
G1 X78.216 Y125.131 E43.82138
G1 X78.646 Y125.594 E43.85291
G1 X79.015 Y126.108 E43.88448
G1 X79.315 Y126.664 E43.916
G1 X79.543 Y127.253 E43.94751
G1 X79.695 Y127.867 E43.97906
G1 X79.775 Y128.758 E44.02369
G1 X79.775 Y148.858 E45.02649
G1 X79.735 Y149.489 E45.05803
G1 X79.616 Y150.11 E45.08958
G1 X79.419 Y150.71 E45.12108
G1 X79.148 Y151.282 E45.15266
G1 X78.808 Y151.814 E45.18416
G1 X78.402 Y152.299 E45.21572
G1 X77.939 Y152.729 E45.24724
G1 X77.425 Y153.098 E45.27881
G1 X76.869 Y153.398 E45.31033
G1 X76.28 Y153.626 E45.34184
G1 X75.666 Y153.778 E45.37339
G1 X74.775 Y153.858 E45.41802
G1 X54.675 Y153.858 E46.42082
G1 X54.044 Y153.818 E46.45236
G1 X53.423 Y153.699 E46.48391
G1 X52.823 Y153.502 E46.51541
G1 X52.251 Y153.231 E46.54699
G1 X51.719 Y152.891 E46.57849
G1 X51.234 Y152.485 E46.61005
G1 X50.804 Y152.022 E46.64157
G1 X50.435 Y151.508 E46.67314
G1 X50.135 Y150.952 E46.70466
G1 X49.907 Y150.363 E46.73617
G1 X49.755 Y149.749 E46.76772
G1 X49.675 Y148.858 E46.81236
G1 X49.675 Y128.758 E47.81515
G1 X49.715 Y128.127 E47.84669
G1 X49.834 Y127.506 E47.87824
G1 X50.031 Y126.906 E47.90974
G1 X50.302 Y126.334 E47.94132
G1 X50.642 Y125.802 E47.97282
G1 X51.048 Y125.317 E48.00438
G1 X51.511 Y124.887 E48.0359
G1 X52.025 Y124.518 E48.06747
G1 X52.581 Y124.218 E48.09899
G1 X53.17 Y123.99 E48.1305
G0 F3600 X52.953 Y124.492
G1 F1800 X53.529 Y124.303 E48.16074
G1 X54.125 Y124.191 E48.191
G1 X54.675 Y124.158 E48.21849
G1 X74.775 Y124.158 E49.22128
G1 X75.38 Y124.198 E49.25153
G1 X75.974 Y124.317 E49.28175
G1 X76.548 Y124.513 E49.31201
G1 X77.091 Y124.784 E49.34229
G1 X77.594 Y125.123 E49.37255
G1 X78.047 Y125.525 E49.40277
G1 X78.444 Y125.983 E49.43301
G1 X78.777 Y126.49 E49.46327
G1 X79.041 Y127.036 E49.49353
G1 X79.23 Y127.612 E49.52377
